%
(Header)
(Generated by gcodetools from Inkscape.)
(Using default header. To add your own header create file "header" in the output dir.)
M3
(Header end.)
G21 (All units in mm)

(Start cutting path id: path21622)
(Change tool to Default tool)

G00 Z5
G00 X12.943728 Y37.369503

G01 Z0 F100.0(Penetrate)
G01 X8.438496 Y37.366963 Z0 F400.000000
G00 Z5

(End cutting path id: path21622)


(Start cutting path id: path21620)
(Change tool to Default tool)

G00 Z5
G00 X7.734083 Y9.417623

G01 Z0 F100.0(Penetrate)
G03 X7.851230 Y9.134803 Z0 I0.399968 J0.000000 F400.000000
G03 X8.134085 Y9.017641 Z0 I0.282855 J0.282853
G03 X8.416938 Y9.134804 Z0 I0.000000 J0.400011
G03 X8.534084 Y9.417623 Z0 I-0.282824 J0.282819
G03 X8.416926 Y9.700478 Z0 I-0.400028 J0.000000
G03 X8.134085 Y9.817639 Z0 I-0.282841 J-0.282826
G03 X7.851242 Y9.700478 Z0 I-0.000000 J-0.399992
G03 X7.734083 Y9.417623 Z0 I0.282867 J-0.282855
G01 X7.734083 Y9.417623 Z0
G00 Z5

(End cutting path id: path21620)


(Start cutting path id: path21618)
(Change tool to Default tool)

G00 Z5
G00 X8.654147 Y10.622458

G01 Z0 F100.0(Penetrate)
G01 X7.654149 Y10.622458 Z0 F400.000000
G03 X6.947037 Y10.329569 Z0 I-0.000000 J-1.000023
G03 X6.654148 Y9.622488 Z0 I0.707059 J-0.707081
G01 X6.654148 Y9.169166 Z0
G03 X6.947040 Y8.462082 Z0 I0.999948 J0.000000
G03 X7.654149 Y8.169196 Z0 I0.707109 J0.707137
G01 X8.654147 Y8.169196 Z0
G03 X9.361256 Y8.462082 Z0 I0.000000 J1.000023
G03 X9.654148 Y9.169166 Z0 I-0.707056 J0.707084
G01 X9.654148 Y9.622488 Z0
G03 X9.361259 Y10.329569 Z0 I-0.999948 J-0.000000
G03 X8.654147 Y10.622458 Z0 I-0.707112 J-0.707134
G01 X8.654147 Y10.622458 Z0
G00 Z5

(End cutting path id: path21618)


(Start cutting path id: path21614)
(Change tool to Default tool)

G00 Z5
G00 X12.814083 Y9.417623

G01 Z0 F100.0(Penetrate)
G03 X12.931230 Y9.134803 Z0 I0.399968 J0.000000 F400.000000
G03 X13.214085 Y9.017641 Z0 I0.282855 J0.282853
G03 X13.496938 Y9.134804 Z0 I0.000000 J0.400011
G03 X13.614084 Y9.417623 Z0 I-0.282824 J0.282819
G03 X13.496926 Y9.700478 Z0 I-0.400028 J0.000000
G03 X13.214085 Y9.817639 Z0 I-0.282841 J-0.282826
G03 X12.931242 Y9.700478 Z0 I0.000000 J-0.399992
G03 X12.814083 Y9.417623 Z0 I0.282867 J-0.282855
G01 X12.814083 Y9.417623 Z0
G00 Z5

(End cutting path id: path21614)


(Start cutting path id: path21612)
(Change tool to Default tool)

G00 Z5
G00 X13.734147 Y10.622458

G01 Z0 F100.0(Penetrate)
G01 X12.734149 Y10.622458 Z0 F400.000000
G03 X12.027037 Y10.329569 Z0 I0.000000 J-1.000023
G03 X11.734148 Y9.622488 Z0 I0.707059 J-0.707081
G01 X11.734148 Y9.169166 Z0
G03 X12.027040 Y8.462082 Z0 I0.999948 J0.000000
G03 X12.734149 Y8.169196 Z0 I0.707109 J0.707137
G01 X13.734147 Y8.169196 Z0
G03 X14.441256 Y8.462082 Z0 I-0.000000 J1.000023
G03 X14.734148 Y9.169166 Z0 I-0.707056 J0.707084
G01 X14.734148 Y9.622488 Z0
G03 X14.441259 Y10.329569 Z0 I-0.999948 J0.000000
G03 X13.734147 Y10.622458 Z0 I-0.707112 J-0.707134
G01 X13.734147 Y10.622458 Z0
G00 Z5

(End cutting path id: path21612)


(Start cutting path id: path21608)
(Change tool to Default tool)

G00 Z5
G00 X22.974083 Y9.417623

G01 Z0 F100.0(Penetrate)
G03 X23.091230 Y9.134803 Z0 I0.399968 J-0.000000 F400.000000
G03 X23.374085 Y9.017641 Z0 I0.282855 J0.282853
G03 X23.656938 Y9.134804 Z0 I0.000000 J0.400011
G03 X23.774084 Y9.417623 Z0 I-0.282824 J0.282819
G03 X23.656926 Y9.700478 Z0 I-0.400028 J0.000000
G03 X23.374085 Y9.817639 Z0 I-0.282841 J-0.282826
G03 X23.091242 Y9.700478 Z0 I0.000000 J-0.399992
G03 X22.974083 Y9.417623 Z0 I0.282867 J-0.282855
G01 X22.974083 Y9.417623 Z0
G00 Z5

(End cutting path id: path21608)


(Start cutting path id: path21606)
(Change tool to Default tool)

G00 Z5
G00 X23.894147 Y10.622458

G01 Z0 F100.0(Penetrate)
G01 X22.894149 Y10.622458 Z0 F400.000000
G03 X22.695296 Y10.602805 Z0 I0.000000 J-1.015867
G03 X22.515506 Y10.548809 Z0 I0.194226 J-0.973031
G03 X22.073553 Y10.195031 Z0 I0.375179 J-0.921627
G03 X21.894148 Y9.622488 Z0 I0.823886 J-0.572543
G01 X21.894148 Y9.169166 Z0
G03 X22.187040 Y8.462082 Z0 I0.999948 J0.000000
G03 X22.894149 Y8.169196 Z0 I0.707109 J0.707137
G01 X23.894147 Y8.169196 Z0
G03 X24.601256 Y8.462082 Z0 I-0.000000 J1.000023
G03 X24.894148 Y9.169166 Z0 I-0.707056 J0.707084
G01 X24.894148 Y9.622488 Z0
G03 X24.601259 Y10.329569 Z0 I-0.999948 J0.000000
G03 X23.894147 Y10.622458 Z0 I-0.707112 J-0.707134
G01 X23.894147 Y10.622458 Z0
G00 Z5

(End cutting path id: path21606)


(Start cutting path id: path21598)
(Change tool to Default tool)

G00 Z5
G00 X17.894083 Y9.417623

G01 Z0 F100.0(Penetrate)
G03 X18.011230 Y9.134803 Z0 I0.399968 J-0.000000 F400.000000
G03 X18.294085 Y9.017641 Z0 I0.282855 J0.282853
G03 X18.576938 Y9.134804 Z0 I0.000000 J0.400011
G03 X18.694084 Y9.417623 Z0 I-0.282824 J0.282819
G03 X18.576926 Y9.700478 Z0 I-0.400028 J0.000000
G03 X18.294085 Y9.817639 Z0 I-0.282841 J-0.282826
G03 X18.011242 Y9.700478 Z0 I-0.000000 J-0.399992
G03 X17.894083 Y9.417623 Z0 I0.282867 J-0.282855
G01 X17.894083 Y9.417623 Z0
G00 Z5

(End cutting path id: path21598)


(Start cutting path id: path21590)
(Change tool to Default tool)

G00 Z5
G00 X18.814147 Y10.622458

G01 Z0 F100.0(Penetrate)
G01 X17.814149 Y10.622458 Z0 F400.000000
G03 X17.107037 Y10.329569 Z0 I0.000000 J-1.000023
G03 X16.814148 Y9.622488 Z0 I0.707059 J-0.707081
G01 X16.814148 Y9.169166 Z0
G03 X17.107040 Y8.462082 Z0 I0.999948 J0.000000
G03 X17.814149 Y8.169196 Z0 I0.707109 J0.707137
G01 X18.814147 Y8.169196 Z0
G03 X19.521256 Y8.462082 Z0 I-0.000000 J1.000023
G03 X19.814148 Y9.169166 Z0 I-0.707056 J0.707084
G01 X19.814148 Y9.622488 Z0
G03 X19.521259 Y10.329569 Z0 I-0.999948 J0.000000
G03 X18.814147 Y10.622458 Z0 I-0.707112 J-0.707134
G01 X18.814147 Y10.622458 Z0
G00 Z5

(End cutting path id: path21590)


(Start cutting path id: path21594)
(Change tool to Default tool)

G00 Z5
G00 X30.596679 Y6.989319

G01 Z0 F100.0(Penetrate)
G01 X25.661105 Y6.989319 Z0 F400.000000
G01 X23.391194 Y9.552179 Z0
G00 Z5

(End cutting path id: path21594)


(Start cutting path id: path21588)
(Change tool to Default tool)

G00 Z5
G00 X20.055626 Y34.887178

G01 Z0 F100.0(Penetrate)
G01 X16.058513 Y34.907724 Z0 F400.000000
G00 Z5

(End cutting path id: path21588)


(Start cutting path id: path21586)
(Change tool to Default tool)

G00 Z5
G00 X22.684487 Y37.369503

G01 Z0 F100.0(Penetrate)
G01 X13.518496 Y37.366963 Z0 F400.000000
G00 Z5

(End cutting path id: path21586)


(Start cutting path id: path21584)
(Change tool to Default tool)

G00 Z5
G00 X23.882608 Y40.796530

G01 Z0 F100.0(Penetrate)
G01 X20.380992 Y40.796530 Z0 F400.000000
G03 X19.785674 Y40.549942 Z0 I-0.000000 J-0.841909
G03 X19.539089 Y39.954636 Z0 I0.595304 J-0.595306
G03 X19.785677 Y39.359321 Z0 I0.841903 J0.000000
G03 X20.380992 Y39.112733 Z0 I0.595315 J0.595315
G01 X23.882608 Y39.112733 Z0
G03 X24.477923 Y39.359321 Z0 I-0.000000 J0.841903
G03 X24.724511 Y39.954636 Z0 I-0.595315 J0.595315
G03 X24.477926 Y40.549942 Z0 I-0.841888 J0.000000
G03 X23.882608 Y40.796530 Z0 I-0.595318 J-0.595321
G01 X23.882608 Y40.796530 Z0
G00 Z5

(End cutting path id: path21584)


(Start cutting path id: path21584)
(Change tool to Default tool)

G00 Z5
G00 X20.560276 Y40.004790

G01 Z0 F100.0(Penetrate)
G03 X20.645122 Y39.799954 Z0 I0.289684 J0.000000 F400.000000
G03 X20.849961 Y39.715106 Z0 I0.204839 J0.204836
G03 X21.054800 Y39.799954 Z0 I0.000000 J0.289684
G03 X21.139645 Y40.004790 Z0 I-0.204839 J0.204836
G03 X21.054799 Y40.209629 Z0 I-0.289689 J-0.000000
G03 X20.849961 Y40.294477 Z0 I-0.204838 J-0.204835
G03 X20.645123 Y40.209629 Z0 I-0.000000 J-0.289682
G03 X20.560276 Y40.004790 Z0 I0.204843 J-0.204839
G01 X20.560276 Y40.004790 Z0
G00 Z5

(End cutting path id: path21584)


(Start cutting path id: path21584)
(Change tool to Default tool)

G00 Z5
G00 X23.100293 Y40.004790

G01 Z0 F100.0(Penetrate)
G03 X23.185138 Y39.799954 Z0 I0.289686 J-0.000000 F400.000000
G03 X23.389975 Y39.715106 Z0 I0.204837 J0.204831
G03 X23.594815 Y39.799955 Z0 I-0.000000 J0.289684
G03 X23.679659 Y40.004790 Z0 I-0.204840 J0.204835
G03 X23.594814 Y40.209628 Z0 I-0.289689 J0.000000
G03 X23.389975 Y40.294477 Z0 I-0.204839 J-0.204833
G03 X23.185139 Y40.209629 Z0 I-0.000000 J-0.289677
G03 X23.100293 Y40.004790 Z0 I0.204846 J-0.204839
G01 X23.100293 Y40.004790 Z0
G00 Z5

(End cutting path id: path21584)


(Start cutting path id: path21582)
(Change tool to Default tool)

G00 Z5
G00 X23.882608 Y43.336530

G01 Z0 F100.0(Penetrate)
G01 X20.380992 Y43.336530 Z0 F400.000000
G03 X19.785674 Y43.089942 Z0 I-0.000000 J-0.841909
G03 X19.539089 Y42.494636 Z0 I0.595304 J-0.595306
G03 X19.785677 Y41.899321 Z0 I0.841903 J-0.000000
G03 X20.380992 Y41.652733 Z0 I0.595315 J0.595315
G01 X23.882608 Y41.652733 Z0
G03 X24.477923 Y41.899321 Z0 I0.000000 J0.841903
G03 X24.724511 Y42.494636 Z0 I-0.595315 J0.595315
G03 X24.477926 Y43.089942 Z0 I-0.841888 J-0.000000
G03 X23.882608 Y43.336530 Z0 I-0.595318 J-0.595321
G01 X23.882608 Y43.336530 Z0
G00 Z5

(End cutting path id: path21582)


(Start cutting path id: path21582)
(Change tool to Default tool)

G00 Z5
G00 X20.560276 Y42.544790

G01 Z0 F100.0(Penetrate)
G03 X20.645122 Y42.339954 Z0 I0.289684 J0.000000 F400.000000
G03 X20.849961 Y42.255106 Z0 I0.204839 J0.204836
G03 X21.054800 Y42.339954 Z0 I0.000000 J0.289684
G03 X21.139645 Y42.544790 Z0 I-0.204839 J0.204836
G03 X21.054799 Y42.749629 Z0 I-0.289689 J0.000000
G03 X20.849961 Y42.834477 Z0 I-0.204838 J-0.204835
G03 X20.645123 Y42.749629 Z0 I0.000000 J-0.289682
G03 X20.560276 Y42.544790 Z0 I0.204843 J-0.204839
G01 X20.560276 Y42.544790 Z0
G00 Z5

(End cutting path id: path21582)


(Start cutting path id: path21582)
(Change tool to Default tool)

G00 Z5
G00 X23.100293 Y42.544790

G01 Z0 F100.0(Penetrate)
G03 X23.185138 Y42.339954 Z0 I0.289686 J-0.000000 F400.000000
G03 X23.389975 Y42.255106 Z0 I0.204837 J0.204831
G03 X23.594815 Y42.339955 Z0 I-0.000000 J0.289684
G03 X23.679659 Y42.544790 Z0 I-0.204840 J0.204835
G03 X23.594814 Y42.749628 Z0 I-0.289689 J0.000000
G03 X23.389975 Y42.834477 Z0 I-0.204839 J-0.204833
G03 X23.185139 Y42.749629 Z0 I-0.000000 J-0.289677
G03 X23.100293 Y42.544790 Z0 I0.204846 J-0.204839
G01 X23.100293 Y42.544790 Z0
G00 Z5

(End cutting path id: path21582)


(Start cutting path id: path18880)
(Change tool to Default tool)

G00 Z5
G00 X13.193907 Y13.549236

G01 Z0 F100.0(Penetrate)
G01 X13.193907 Y10.099380 Z0 F400.000000
G00 Z5

(End cutting path id: path18880)


(Start cutting path id: path18810)
(Change tool to Default tool)

G00 Z5
G00 X7.298434 Y37.356501

G01 Z0 F100.0(Penetrate)
G03 X7.547381 Y36.755491 Z0 I0.849956 J0.000000 F400.000000
G03 X8.148434 Y36.506527 Z0 I0.601053 J0.601053
G03 X8.749486 Y36.755490 Z0 I0.000000 J0.850018
G03 X8.998433 Y37.356501 Z0 I-0.601009 J0.601011
G03 X8.749476 Y37.957523 Z0 I-0.849956 J-0.000000
G03 X8.148434 Y38.206476 Z0 I-0.601042 J-0.601065
G03 X7.547391 Y37.957521 Z0 I-0.000000 J-0.850018
G03 X7.298434 Y37.356501 Z0 I0.601000 J-0.601020
G01 X7.298434 Y37.356501 Z0
G00 Z5

(End cutting path id: path18810)


(Start cutting path id: path18810)
(Change tool to Default tool)

G00 Z5
G00 X7.898261 Y37.359323

G01 Z0 F100.0(Penetrate)
G03 X7.971482 Y37.182557 Z0 I0.249979 J-0.000000 F400.000000
G03 X8.148259 Y37.109337 Z0 I0.176777 J0.176785
G03 X8.325041 Y37.182559 Z0 I-0.000000 J0.250016
G03 X8.398263 Y37.359323 Z0 I-0.176754 J0.176764
G03 X8.325034 Y37.536111 Z0 I-0.250013 J-0.000000
G03 X8.148259 Y37.609333 Z0 I-0.176775 J-0.176778
G03 X7.971490 Y37.536113 Z0 I-0.000000 J-0.249990
G03 X7.898261 Y37.359323 Z0 I0.176788 J-0.176790
G01 X7.898261 Y37.359323 Z0
G00 Z5

(End cutting path id: path18810)


(Start cutting path id: path18808)
(Change tool to Default tool)

G00 Z5
G00 X12.814084 Y9.417616

G01 Z0 F100.0(Penetrate)
G03 X12.931225 Y9.134814 Z0 I0.399939 J-0.000000 F400.000000
G03 X13.214086 Y9.017650 Z0 I0.282861 J0.282864
G03 X13.496945 Y9.134815 Z0 I0.000000 J0.400023
G03 X13.614085 Y9.417616 Z0 I-0.282801 J0.282801
G03 X13.496925 Y9.700477 Z0 I-0.400038 J0.000000
G03 X13.214086 Y9.817638 Z0 I-0.282839 J-0.282822
G03 X12.931245 Y9.700477 Z0 I-0.000000 J-0.399988
G03 X12.814084 Y9.417616 Z0 I0.282875 J-0.282861
G01 X12.814084 Y9.417616 Z0
G00 Z5

(End cutting path id: path18808)


(Start cutting path id: path18808)
(Change tool to Default tool)

G00 Z5
G00 X13.734148 Y10.622451

G01 Z0 F100.0(Penetrate)
G01 X12.734150 Y10.622451 Z0 F400.000000
G03 X12.027046 Y10.329570 Z0 I-0.000000 J-1.000023
G03 X11.734149 Y9.622481 Z0 I0.707051 J-0.707089
G01 X11.734149 Y9.169176 Z0
G03 X12.027046 Y8.462087 Z0 I0.999948 J0.000000
G03 X12.734150 Y8.169206 Z0 I0.707104 J0.707142
G01 X13.734148 Y8.169206 Z0
G03 X14.441252 Y8.462087 Z0 I-0.000000 J1.000023
G03 X14.734149 Y9.169176 Z0 I-0.707051 J0.707089
G01 X14.734149 Y9.622481 Z0
G03 X14.441252 Y10.329570 Z0 I-0.999948 J-0.000000
G03 X13.734148 Y10.622451 Z0 I-0.707104 J-0.707142
G01 X13.734148 Y10.622451 Z0
G00 Z5

(End cutting path id: path18808)


(Start cutting path id: path18806)
(Change tool to Default tool)

G00 Z5
G00 X7.734084 Y9.417616

G01 Z0 F100.0(Penetrate)
G03 X7.851225 Y9.134814 Z0 I0.399939 J0.000000 F400.000000
G03 X8.134086 Y9.017650 Z0 I0.282861 J0.282864
G03 X8.416945 Y9.134815 Z0 I0.000000 J0.400023
G03 X8.534085 Y9.417616 Z0 I-0.282801 J0.282801
G03 X8.416925 Y9.700477 Z0 I-0.400038 J0.000000
G03 X8.134086 Y9.817638 Z0 I-0.282839 J-0.282822
G03 X7.851245 Y9.700477 Z0 I-0.000000 J-0.399988
G03 X7.734084 Y9.417616 Z0 I0.282875 J-0.282861
G01 X7.734084 Y9.417616 Z0
G00 Z5

(End cutting path id: path18806)


(Start cutting path id: path18806)
(Change tool to Default tool)

G00 Z5
G00 X8.654148 Y10.622451

G01 Z0 F100.0(Penetrate)
G01 X7.654150 Y10.622451 Z0 F400.000000
G03 X6.947046 Y10.329570 Z0 I-0.000000 J-1.000023
G03 X6.654149 Y9.622481 Z0 I0.707051 J-0.707089
G01 X6.654149 Y9.169176 Z0
G03 X6.947046 Y8.462087 Z0 I0.999948 J0.000000
G03 X7.654150 Y8.169206 Z0 I0.707104 J0.707142
G01 X8.654148 Y8.169206 Z0
G03 X9.361252 Y8.462087 Z0 I0.000000 J1.000023
G03 X9.654149 Y9.169176 Z0 I-0.707051 J0.707089
G01 X9.654149 Y9.622481 Z0
G03 X9.361252 Y10.329570 Z0 I-0.999948 J-0.000000
G03 X8.654148 Y10.622451 Z0 I-0.707104 J-0.707142
G01 X8.654148 Y10.622451 Z0
G00 Z5

(End cutting path id: path18806)


(Start cutting path id: path18804)
(Change tool to Default tool)

G00 Z5
G00 X12.365861 Y37.330734

G01 Z0 F100.0(Penetrate)
G03 X12.614820 Y36.729712 Z0 I0.849956 J0.000000 F400.000000
G03 X13.215861 Y36.480760 Z0 I0.601040 J0.601066
G03 X13.816900 Y36.729710 Z0 I0.000000 J0.850018
G03 X14.065861 Y37.330734 Z0 I-0.600996 J0.601024
G03 X13.816903 Y37.931756 Z0 I-0.849956 J0.000000
G03 X13.215861 Y38.180709 Z0 I-0.601042 J-0.601065
G03 X12.614818 Y37.931754 Z0 I0.000000 J-0.850018
G03 X12.365861 Y37.330734 Z0 I0.601000 J-0.601020
G01 X12.365861 Y37.330734 Z0
G00 Z5

(End cutting path id: path18804)


(Start cutting path id: path18804)
(Change tool to Default tool)

G00 Z5
G00 X12.965688 Y37.333557

G01 Z0 F100.0(Penetrate)
G03 X13.038909 Y37.156791 Z0 I0.249979 J-0.000000 F400.000000
G03 X13.215686 Y37.083570 Z0 I0.176777 J0.176785
G03 X13.392469 Y37.156793 Z0 I-0.000000 J0.250016
G03 X13.465690 Y37.333557 Z0 I-0.176754 J0.176764
G03 X13.392474 Y37.510335 Z0 I-0.250023 J0.000000
G03 X13.215686 Y37.583572 Z0 I-0.176788 J-0.176759
G03 X13.038904 Y37.510337 Z0 I-0.000000 J-0.249986
G03 X12.965688 Y37.333557 Z0 I0.176811 J-0.176780
G01 X12.965688 Y37.333557 Z0
G00 Z5

(End cutting path id: path18804)


(Start cutting path id: path18802)
(Change tool to Default tool)

G00 Z5
G00 X8.108708 Y25.803622

G01 Z0 F100.0(Penetrate)
G01 X8.104080 Y27.450397 Z0 F400.000000
G01 X8.128125 Y28.340692 Z0
G01 X8.112857 Y29.482264 Z0
G00 Z5

(End cutting path id: path18802)


(Start cutting path id: path18800)
(Change tool to Default tool)

G00 Z5
G00 X8.980555 Y30.617441

G01 Z0 F100.0(Penetrate)
G01 X7.280555 Y30.617441 Z0 F400.000000
G01 X7.280555 Y28.917492 Z0
G01 X8.980555 Y28.917492 Z0
G01 X8.980555 Y30.617441 Z0
G01 X8.980555 Y30.617441 Z0
G00 Z5

(End cutting path id: path18800)


(Start cutting path id: path18800)
(Change tool to Default tool)

G00 Z5
G00 X7.883540 Y29.764475

G01 Z0 F100.0(Penetrate)
G03 X7.956759 Y29.587713 Z0 I0.249977 J0.000000 F400.000000
G03 X8.133541 Y29.514488 Z0 I0.176782 J0.176787
G03 X8.310323 Y29.587713 Z0 I0.000000 J0.250011
G03 X8.383542 Y29.764475 Z0 I-0.176758 J0.176762
G03 X8.310311 Y29.941270 Z0 I-0.250025 J0.000000
G03 X8.133541 Y30.014490 Z0 I-0.176770 J-0.176771
G03 X7.956771 Y29.941270 Z0 I0.000000 J-0.249991
G03 X7.883540 Y29.764475 Z0 I0.176794 J-0.176795
G01 X7.883540 Y29.764475 Z0
G00 Z5

(End cutting path id: path18800)


(Start cutting path id: path18798)
(Change tool to Default tool)

G00 Z5
G00 X8.125359 Y34.583882

G01 Z0 F100.0(Penetrate)
G01 X8.148135 Y32.498768 Z0 F400.000000
G00 Z5

(End cutting path id: path18798)


(Start cutting path id: path18796)
(Change tool to Default tool)

G00 Z5
G00 X7.290269 Y34.861583

G01 Z0 F100.0(Penetrate)
G03 X7.539231 Y34.260558 Z0 I0.849956 J0.000000 F400.000000
G03 X8.140269 Y34.011609 Z0 I0.601038 J0.601069
G03 X8.741306 Y34.260557 Z0 I-0.000000 J0.850018
G03 X8.990269 Y34.861583 Z0 I-0.600993 J0.601027
G03 X8.741324 Y35.462592 Z0 I-0.849956 J0.000000
G03 X8.140269 Y35.711558 Z0 I-0.601055 J-0.601052
G03 X7.539213 Y35.462591 Z0 I0.000000 J-0.850018
G03 X7.290269 Y34.861583 Z0 I0.601012 J-0.601007
G01 X7.290269 Y34.861583 Z0
G00 Z5

(End cutting path id: path18796)


(Start cutting path id: path18796)
(Change tool to Default tool)

G00 Z5
G00 X7.890096 Y34.864406

G01 Z0 F100.0(Penetrate)
G03 X7.963327 Y34.687610 Z0 I0.250027 J-0.000000 F400.000000
G03 X8.140094 Y34.614391 Z0 I0.176767 J0.176767
G03 X8.316867 Y34.687612 Z0 I-0.000000 J0.249996
G03 X8.390098 Y34.864406 Z0 I-0.176792 J0.176794
G03 X8.316879 Y35.041164 Z0 I-0.249965 J0.000000
G03 X8.140094 Y35.114387 Z0 I-0.176785 J-0.176797
G03 X7.963315 Y35.041166 Z0 I-0.000000 J-0.250010
G03 X7.890096 Y34.864406 Z0 I0.176750 J-0.176760
G01 X7.890096 Y34.864406 Z0
G00 Z5

(End cutting path id: path18796)


(Start cutting path id: path18794)
(Change tool to Default tool)

G00 Z5
G00 X7.262846 Y32.304746

G01 Z0 F100.0(Penetrate)
G03 X7.511795 Y31.703734 Z0 I0.849956 J0.000000 F400.000000
G03 X8.112846 Y31.454772 Z0 I0.601051 J0.601056
G03 X8.713893 Y31.703733 Z0 I0.000000 J0.850013
G03 X8.962842 Y32.304746 Z0 I-0.601009 J0.601013
G03 X8.713883 Y32.905770 Z0 I-0.849958 J0.000000
G03 X8.112846 Y33.154720 Z0 I-0.601038 J-0.601062
G03 X7.511805 Y32.905769 Z0 I-0.000000 J-0.850018
G03 X7.262846 Y32.304746 Z0 I0.600997 J-0.601023
G01 X7.262846 Y32.304746 Z0
G00 Z5

(End cutting path id: path18794)


(Start cutting path id: path18794)
(Change tool to Default tool)

G00 Z5
G00 X7.862672 Y32.307568

G01 Z0 F100.0(Penetrate)
G03 X7.935891 Y32.130805 Z0 I0.249979 J-0.000000 F400.000000
G03 X8.112671 Y32.057581 Z0 I0.176779 J0.176783
G03 X8.289455 Y32.130805 Z0 I-0.000000 J0.250016
G03 X8.362674 Y32.307568 Z0 I-0.176755 J0.176763
G03 X8.289445 Y32.484361 Z0 I-0.250023 J-0.000000
G03 X8.112671 Y32.557583 Z0 I-0.176774 J-0.176773
G03 X7.935901 Y32.484361 Z0 I-0.000000 J-0.249986
G03 X7.862672 Y32.307568 Z0 I0.176798 J-0.176793
G01 X7.862672 Y32.307568 Z0
G00 Z5

(End cutting path id: path18794)


(Start cutting path id: path18792)
(Change tool to Default tool)

G00 Z5
G00 X14.910269 Y34.861583

G01 Z0 F100.0(Penetrate)
G03 X15.159231 Y34.260558 Z0 I0.849956 J0.000000 F400.000000
G03 X15.760269 Y34.011609 Z0 I0.601038 J0.601069
G03 X16.361306 Y34.260557 Z0 I0.000000 J0.850018
G03 X16.610269 Y34.861583 Z0 I-0.600993 J0.601027
G03 X16.361324 Y35.462592 Z0 I-0.849956 J0.000000
G03 X15.760269 Y35.711558 Z0 I-0.601055 J-0.601052
G03 X15.159213 Y35.462591 Z0 I0.000000 J-0.850018
G03 X14.910269 Y34.861583 Z0 I0.601012 J-0.601007
G01 X14.910269 Y34.861583 Z0
G00 Z5

(End cutting path id: path18792)


(Start cutting path id: path18792)
(Change tool to Default tool)

G00 Z5
G00 X15.510096 Y34.864406

G01 Z0 F100.0(Penetrate)
G03 X15.583327 Y34.687610 Z0 I0.250027 J-0.000000 F400.000000
G03 X15.760094 Y34.614391 Z0 I0.176767 J0.176767
G03 X15.936867 Y34.687612 Z0 I-0.000000 J0.249996
G03 X16.010098 Y34.864406 Z0 I-0.176792 J0.176794
G03 X15.936879 Y35.041164 Z0 I-0.249965 J0.000000
G03 X15.760094 Y35.114387 Z0 I-0.176785 J-0.176797
G03 X15.583315 Y35.041166 Z0 I-0.000000 J-0.250010
G03 X15.510096 Y34.864406 Z0 I0.176750 J-0.176760
G01 X15.510096 Y34.864406 Z0
G00 Z5

(End cutting path id: path18792)


(Start cutting path id: path18790)
(Change tool to Default tool)

G00 Z5
G00 X30.327010 Y17.107237

G01 Z0 F100.0(Penetrate)
G01 X23.367338 Y17.058249 Z0 F400.000000
G01 X18.225830 Y11.966562 Z0
G01 X18.216404 Y7.359792 Z0
G01 X16.154508 Y4.865428 Z0
G01 X9.753928 Y4.865428 Z0
G01 X8.111807 Y6.891812 Z0
G01 X8.110114 Y13.527759 Z0
G00 Z5

(End cutting path id: path18790)


(Start cutting path id: path18784)
(Change tool to Default tool)

G00 Z5
G00 X7.734084 Y14.547372

G01 Z0 F100.0(Penetrate)
G03 X7.851238 Y14.264557 Z0 I0.399939 J0.000000 F400.000000
G03 X8.134086 Y14.147406 Z0 I0.282848 J0.282877
G03 X8.416932 Y14.264558 Z0 I-0.000000 J0.400023
G03 X8.534085 Y14.547372 Z0 I-0.282788 J0.282814
G03 X8.416922 Y14.830217 Z0 I-0.399994 J0.000000
G03 X8.134086 Y14.947368 Z0 I-0.282837 J-0.282850
G03 X7.851247 Y14.830217 Z0 I0.000000 J-0.400006
G03 X7.734084 Y14.547372 Z0 I0.282829 J-0.282846
G01 X7.734084 Y14.547372 Z0
G00 Z5

(End cutting path id: path18784)


(Start cutting path id: path18784)
(Change tool to Default tool)

G00 Z5
G00 X7.734084 Y17.087312

G01 Z0 F100.0(Penetrate)
G03 X7.851244 Y16.804480 Z0 I0.399968 J-0.000000 F400.000000
G03 X8.134086 Y16.687330 Z0 I0.282842 J0.282866
G03 X8.416926 Y16.804480 Z0 I0.000000 J0.400011
G03 X8.534085 Y17.087312 Z0 I-0.282811 J0.282832
G03 X8.416924 Y17.370150 Z0 I-0.399980 J-0.000000
G03 X8.134086 Y17.487300 Z0 I-0.282838 J-0.282857
G03 X7.851245 Y17.370151 Z0 I0.000000 J-0.400012
G03 X7.734084 Y17.087312 Z0 I0.282816 J-0.282838
G01 X7.734084 Y17.087312 Z0
G00 Z5

(End cutting path id: path18784)


(Start cutting path id: path18784)
(Change tool to Default tool)

G00 Z5
G00 X7.734084 Y19.627245

G01 Z0 F100.0(Penetrate)
G03 X7.851246 Y19.344410 Z0 I0.399968 J-0.000000 F400.000000
G03 X8.134086 Y19.227262 Z0 I0.282840 J0.282869
G03 X8.416923 Y19.344410 Z0 I-0.000000 J0.400011
G03 X8.534085 Y19.627245 Z0 I-0.282809 J0.282834
G03 X8.416923 Y19.910076 Z0 I-0.399961 J0.000000
G03 X8.134086 Y20.027221 Z0 I-0.282837 J-0.282870
G03 X7.851247 Y19.910076 Z0 I0.000000 J-0.400020
G03 X7.734084 Y19.627245 Z0 I0.282796 J-0.282831
G01 X7.734084 Y19.627245 Z0
G00 Z5

(End cutting path id: path18784)


(Start cutting path id: path18784)
(Change tool to Default tool)

G00 Z5
G00 X7.734084 Y22.167177

G01 Z0 F100.0(Penetrate)
G03 X7.851246 Y21.884342 Z0 I0.399968 J0.000000 F400.000000
G03 X8.134086 Y21.767195 Z0 I0.282840 J0.282869
G03 X8.416923 Y21.884342 Z0 I-0.000000 J0.400011
G03 X8.534085 Y22.167177 Z0 I-0.282809 J0.282834
G03 X8.416923 Y22.450011 Z0 I-0.399970 J0.000000
G03 X8.134086 Y22.567159 Z0 I-0.282838 J-0.282863
G03 X7.851246 Y22.450012 Z0 I0.000000 J-0.400016
G03 X7.734084 Y22.167177 Z0 I0.282806 J-0.282835
G01 X7.734084 Y22.167177 Z0
G00 Z5

(End cutting path id: path18784)


(Start cutting path id: path18784)
(Change tool to Default tool)

G00 Z5
G00 X7.734084 Y24.707104

G01 Z0 F100.0(Penetrate)
G03 X7.851244 Y24.424275 Z0 I0.399959 J0.000000 F400.000000
G03 X8.134086 Y24.307127 Z0 I0.282842 J0.282872
G03 X8.416925 Y24.424275 Z0 I0.000000 J0.400015
G03 X8.534085 Y24.707104 Z0 I-0.282801 J0.282829
G03 X8.416921 Y24.989944 Z0 I-0.399980 J0.000000
G03 X8.134086 Y25.107092 Z0 I-0.282836 J-0.282860
G03 X7.851248 Y24.989944 Z0 I0.000000 J-0.400012
G03 X7.734084 Y24.707104 Z0 I0.282813 J-0.282841
G01 X7.734084 Y24.707104 Z0
G00 Z5

(End cutting path id: path18784)


(Start cutting path id: path18784)
(Change tool to Default tool)

G00 Z5
G00 X8.654148 Y26.326709

G01 Z0 F100.0(Penetrate)
G01 X7.654150 Y26.326709 Z0 F400.000000
G03 X6.947038 Y26.033820 Z0 I-0.000000 J-1.000023
G03 X6.654149 Y25.326739 Z0 I0.707059 J-0.707081
G01 X6.654149 Y14.149269 Z0
G03 X6.947046 Y13.442180 Z0 I0.999948 J0.000000
G03 X7.654150 Y13.149299 Z0 I0.707104 J0.707142
G01 X8.654148 Y13.149299 Z0
G03 X9.361252 Y13.442180 Z0 I-0.000000 J1.000023
G03 X9.654149 Y14.149269 Z0 I-0.707051 J0.707089
G01 X9.654149 Y25.326739 Z0
G03 X9.361260 Y26.033820 Z0 I-0.999948 J-0.000000
G03 X8.654148 Y26.326709 Z0 I-0.707112 J-0.707134
G01 X8.654148 Y26.326709 Z0
G00 Z5

(End cutting path id: path18784)


(Start cutting path id: path18782)
(Change tool to Default tool)

G00 Z5
G00 X12.814084 Y14.547372

G01 Z0 F100.0(Penetrate)
G03 X12.931238 Y14.264557 Z0 I0.399939 J0.000000 F400.000000
G03 X13.214086 Y14.147406 Z0 I0.282848 J0.282877
G03 X13.496932 Y14.264558 Z0 I-0.000000 J0.400023
G03 X13.614085 Y14.547372 Z0 I-0.282788 J0.282814
G03 X13.496922 Y14.830217 Z0 I-0.399994 J-0.000000
G03 X13.214086 Y14.947368 Z0 I-0.282837 J-0.282850
G03 X12.931247 Y14.830217 Z0 I0.000000 J-0.400006
G03 X12.814084 Y14.547372 Z0 I0.282829 J-0.282846
G01 X12.814084 Y14.547372 Z0
G00 Z5

(End cutting path id: path18782)


(Start cutting path id: path18782)
(Change tool to Default tool)

G00 Z5
G00 X12.814084 Y17.087312

G01 Z0 F100.0(Penetrate)
G03 X12.931244 Y16.804480 Z0 I0.399968 J-0.000000 F400.000000
G03 X13.214086 Y16.687330 Z0 I0.282842 J0.282866
G03 X13.496926 Y16.804480 Z0 I0.000000 J0.400011
G03 X13.614085 Y17.087312 Z0 I-0.282811 J0.282832
G03 X13.496924 Y17.370150 Z0 I-0.399980 J-0.000000
G03 X13.214086 Y17.487300 Z0 I-0.282838 J-0.282857
G03 X12.931246 Y17.370151 Z0 I-0.000000 J-0.400012
G03 X12.814084 Y17.087312 Z0 I0.282816 J-0.282838
G01 X12.814084 Y17.087312 Z0
G00 Z5

(End cutting path id: path18782)


(Start cutting path id: path18782)
(Change tool to Default tool)

G00 Z5
G00 X12.814084 Y19.627245

G01 Z0 F100.0(Penetrate)
G03 X12.931246 Y19.344410 Z0 I0.399968 J0.000000 F400.000000
G03 X13.214086 Y19.227262 Z0 I0.282840 J0.282869
G03 X13.496923 Y19.344410 Z0 I-0.000000 J0.400011
G03 X13.614085 Y19.627245 Z0 I-0.282809 J0.282834
G03 X13.496923 Y19.910076 Z0 I-0.399961 J-0.000000
G03 X13.214086 Y20.027221 Z0 I-0.282837 J-0.282870
G03 X12.931247 Y19.910076 Z0 I0.000000 J-0.400020
G03 X12.814084 Y19.627245 Z0 I0.282796 J-0.282831
G01 X12.814084 Y19.627245 Z0
G00 Z5

(End cutting path id: path18782)


(Start cutting path id: path18782)
(Change tool to Default tool)

G00 Z5
G00 X12.814084 Y22.167177

G01 Z0 F100.0(Penetrate)
G03 X12.931246 Y21.884342 Z0 I0.399968 J0.000000 F400.000000
G03 X13.214086 Y21.767195 Z0 I0.282840 J0.282869
G03 X13.496923 Y21.884342 Z0 I-0.000000 J0.400011
G03 X13.614085 Y22.167177 Z0 I-0.282809 J0.282834
G03 X13.496923 Y22.450011 Z0 I-0.399970 J0.000000
G03 X13.214086 Y22.567159 Z0 I-0.282838 J-0.282863
G03 X12.931246 Y22.450012 Z0 I0.000000 J-0.400016
G03 X12.814084 Y22.167177 Z0 I0.282806 J-0.282835
G01 X12.814084 Y22.167177 Z0
G00 Z5

(End cutting path id: path18782)


(Start cutting path id: path18782)
(Change tool to Default tool)

G00 Z5
G00 X12.814084 Y24.707104

G01 Z0 F100.0(Penetrate)
G03 X12.931244 Y24.424275 Z0 I0.399959 J0.000000 F400.000000
G03 X13.214086 Y24.307127 Z0 I0.282842 J0.282872
G03 X13.496925 Y24.424275 Z0 I0.000000 J0.400015
G03 X13.614085 Y24.707104 Z0 I-0.282801 J0.282829
G03 X13.496922 Y24.989944 Z0 I-0.399980 J0.000000
G03 X13.214086 Y25.107092 Z0 I-0.282836 J-0.282860
G03 X12.931248 Y24.989944 Z0 I0.000000 J-0.400012
G03 X12.814084 Y24.707104 Z0 I0.282813 J-0.282841
G01 X12.814084 Y24.707104 Z0
G00 Z5

(End cutting path id: path18782)


(Start cutting path id: path18782)
(Change tool to Default tool)

G00 Z5
G00 X13.734148 Y26.326709

G01 Z0 F100.0(Penetrate)
G01 X12.734150 Y26.326709 Z0 F400.000000
G03 X12.027038 Y26.033820 Z0 I0.000000 J-1.000023
G03 X11.734149 Y25.326739 Z0 I0.707059 J-0.707081
G01 X11.734149 Y14.149269 Z0
G03 X12.027046 Y13.442180 Z0 I0.999948 J0.000000
G03 X12.734150 Y13.149299 Z0 I0.707104 J0.707142
G01 X13.734148 Y13.149299 Z0
G03 X14.441252 Y13.442180 Z0 I-0.000000 J1.000023
G03 X14.734149 Y14.149269 Z0 I-0.707051 J0.707089
G01 X14.734149 Y25.326739 Z0
G03 X14.441260 Y26.033820 Z0 I-0.999948 J-0.000000
G03 X13.734148 Y26.326709 Z0 I-0.707112 J-0.707134
G01 X13.734148 Y26.326709 Z0
G00 Z5

(End cutting path id: path18782)


(Start cutting path id: path18624)
(Change tool to Default tool)

G00 Z5
G00 X11.822772 Y16.582801

G01 Z0 F100.0(Penetrate)
G01 X12.425317 Y15.859959 Z0 F400.000000
G01 X13.824786 Y15.859959 Z0
G01 X14.376178 Y16.582801 Z0
G01 X14.376178 Y17.658067 Z0
G01 X13.720364 Y18.387965 Z0
G01 X12.545614 Y18.387965 Z0
G01 X11.819245 Y17.661595 Z0
G01 X11.822772 Y16.582801 Z0
G01 X11.822772 Y16.582801 Z0
G00 Z5

(End cutting path id: path18624)


(Start cutting path id: path18612)
(Change tool to Default tool)

G00 Z5
G00 X11.822772 Y14.024668

G01 Z0 F100.0(Penetrate)
G01 X12.425317 Y13.301826 Z0 F400.000000
G01 X13.824786 Y13.301826 Z0
G01 X14.376178 Y14.024668 Z0
G01 X14.376178 Y15.099935 Z0
G01 X13.720364 Y15.829832 Z0
G01 X12.545614 Y15.829832 Z0
G01 X11.819245 Y15.103462 Z0
G01 X11.822772 Y14.024668 Z0
G01 X11.822772 Y14.024668 Z0
G00 Z5

(End cutting path id: path18612)


(Start cutting path id: path17911)
(Change tool to Default tool)

G00 Z5
G00 X4.713095 Y42.463335

G01 Z0 F100.0(Penetrate)
G03 X4.962053 Y41.862296 Z0 I0.850000 J0.000000 F400.000000
G03 X5.563095 Y41.613335 Z0 I0.601042 J0.601039
G03 X6.164135 Y41.862294 Z0 I0.000000 J0.850000
G03 X6.413094 Y42.463335 Z0 I-0.601041 J0.601041
G03 X6.164134 Y43.064377 Z0 I-0.850000 J-0.000000
G03 X5.563095 Y43.313335 Z0 I-0.601039 J-0.601042
G03 X4.962054 Y43.064375 Z0 I-0.000000 J-0.850000
G03 X4.713095 Y42.463335 Z0 I0.601041 J-0.601041
G01 X4.713095 Y42.463335 Z0
G00 Z5

(End cutting path id: path17911)


(Start cutting path id: path17911)
(Change tool to Default tool)

G00 Z5
G00 X5.312922 Y42.466157

G01 Z0 F100.0(Penetrate)
G03 X5.386145 Y42.289379 Z0 I0.250003 J0.000000 F400.000000
G03 X5.562920 Y42.216156 Z0 I0.176774 J0.176774
G03 X5.739700 Y42.289381 Z0 I0.000000 J0.250006
G03 X5.812924 Y42.466157 Z0 I-0.176776 J0.176776
G03 X5.739700 Y42.642934 Z0 I-0.249999 J0.000000
G03 X5.562920 Y42.716158 Z0 I-0.176780 J-0.176781
G03 X5.386145 Y42.642935 Z0 I-0.000000 J-0.249996
G03 X5.312922 Y42.466157 Z0 I0.176779 J-0.176778
G01 X5.312922 Y42.466157 Z0
G00 Z5

(End cutting path id: path17911)


(Start cutting path id: path17907)
(Change tool to Default tool)

G00 Z5
G00 X25.920817 Y63.591298

G01 Z0 F100.0(Penetrate)
G01 X25.903516 Y65.482977 Z0 F400.000000
G01 X23.508782 Y67.881866 Z0
G01 X9.162783 Y67.881866 Z0
G01 X5.024920 Y63.744003 Z0
G01 X5.024920 Y43.378361 Z0
G01 X5.373910 Y42.785379 Z0
G00 Z5

(End cutting path id: path17907)


(Start cutting path id: path8640)
(Change tool to Default tool)

G00 Z5
G00 X12.378180 Y47.622416

G01 Z0 F100.0(Penetrate)
G03 X12.627138 Y47.021377 Z0 I0.850000 J-0.000000 F400.000000
G03 X13.228180 Y46.772417 Z0 I0.601042 J0.601039
G03 X13.829220 Y47.021376 Z0 I0.000000 J0.850000
G03 X14.078180 Y47.622416 Z0 I-0.601041 J0.601041
G03 X13.829219 Y48.223458 Z0 I-0.850000 J-0.000000
G03 X13.228180 Y48.472416 Z0 I-0.601039 J-0.601042
G03 X12.627139 Y48.223457 Z0 I-0.000000 J-0.850000
G03 X12.378180 Y47.622416 Z0 I0.601041 J-0.601041
G01 X12.378180 Y47.622416 Z0
G00 Z5

(End cutting path id: path8640)


(Start cutting path id: path8640)
(Change tool to Default tool)

G00 Z5
G00 X12.978007 Y47.625239

G01 Z0 F100.0(Penetrate)
G03 X13.051230 Y47.448460 Z0 I0.250003 J-0.000000 F400.000000
G03 X13.228005 Y47.375238 Z0 I0.176774 J0.176774
G03 X13.404785 Y47.448462 Z0 I0.000000 J0.250006
G03 X13.478009 Y47.625239 Z0 I-0.176776 J0.176776
G03 X13.404785 Y47.802015 Z0 I-0.249999 J0.000000
G03 X13.228005 Y47.875240 Z0 I-0.176780 J-0.176781
G03 X13.051230 Y47.802017 Z0 I0.000000 J-0.249996
G03 X12.978007 Y47.625239 Z0 I0.176779 J-0.176778
G01 X12.978007 Y47.625239 Z0
G00 Z5

(End cutting path id: path8640)


(Start cutting path id: path8636)
(Change tool to Default tool)

G00 Z5
G00 X12.375488 Y62.015857

G01 Z0 F100.0(Penetrate)
G01 X14.075487 Y62.015857 Z0 F400.000000
G01 X14.075487 Y63.715857 Z0
G01 X12.375488 Y63.715857 Z0
G01 X12.375488 Y62.015857 Z0
G01 X12.375488 Y62.015857 Z0
G00 Z5

(End cutting path id: path8636)


(Start cutting path id: path8636)
(Change tool to Default tool)

G00 Z5
G00 X13.472502 Y62.868843

G01 Z0 F100.0(Penetrate)
G03 X13.399279 Y63.045620 Z0 I-0.250001 J0.000000 F400.000000
G03 X13.222502 Y63.118844 Z0 I-0.176777 J-0.176777
G03 X13.045724 Y63.045620 Z0 I-0.000000 J-0.250001
G03 X12.972501 Y62.868843 Z0 I0.176777 J-0.176777
G03 X13.045724 Y62.692065 Z0 I0.250001 J0.000000
G03 X13.222502 Y62.618842 Z0 I0.176777 J0.176777
G03 X13.399279 Y62.692065 Z0 I0.000000 J0.250001
G03 X13.472502 Y62.868843 Z0 I-0.176777 J0.176777
G01 X13.472502 Y62.868843 Z0
G00 Z5

(End cutting path id: path8636)


(Start cutting path id: path8634)
(Change tool to Default tool)

G00 Z5
G00 X14.093197 Y60.328501

G01 Z0 F100.0(Penetrate)
G03 X13.844239 Y60.929542 Z0 I-0.850005 J-0.000000 F400.000000
G03 X13.243197 Y61.178504 Z0 I-0.601042 J-0.601036
G03 X12.642159 Y60.929544 Z0 I-0.000000 J-0.849993
G03 X12.393200 Y60.328501 Z0 I0.601048 J-0.601043
G03 X12.642159 Y59.727460 Z0 I0.850002 J0.000000
G03 X13.243197 Y59.478502 Z0 I0.601038 J0.601037
G03 X13.844237 Y59.727461 Z0 I0.000000 J0.850000
G03 X14.093197 Y60.328501 Z0 I-0.601041 J0.601041
G01 X14.093197 Y60.328501 Z0
G00 Z5

(End cutting path id: path8634)


(Start cutting path id: path8634)
(Change tool to Default tool)

G00 Z5
G00 X13.493370 Y60.325679

G01 Z0 F100.0(Penetrate)
G03 X13.420145 Y60.502459 Z0 I-0.250003 J0.000000 F400.000000
G03 X13.243372 Y60.575680 Z0 I-0.176773 J-0.176775
G03 X13.066594 Y60.502458 Z0 I-0.000000 J-0.250006
G03 X12.993368 Y60.325679 Z0 I0.176773 J-0.176779
G03 X13.066593 Y60.148901 Z0 I0.249999 J0.000000
G03 X13.243372 Y60.075678 Z0 I0.176779 J0.176782
G03 X13.420146 Y60.148901 Z0 I-0.000000 J0.249996
G03 X13.493370 Y60.325679 Z0 I-0.176779 J0.176778
G01 X13.493370 Y60.325679 Z0
G00 Z5

(End cutting path id: path8634)


(Start cutting path id: path8632)
(Change tool to Default tool)

G00 Z5
G00 X12.897475 Y62.814710

G01 Z0 F100.0(Penetrate)
G01 X10.830634 Y62.814710 Z0 F400.000000
G01 X8.950549 Y60.934624 Z0
G01 X8.950549 Y40.911784 Z0
G00 Z5

(End cutting path id: path8632)


(Start cutting path id: path8630)
(Change tool to Default tool)

G00 Z5
G00 X13.200085 Y59.951472

G01 Z0 F100.0(Penetrate)
G01 X13.266850 Y47.879930 Z0 F400.000000
G00 Z5

(End cutting path id: path8630)


(Start cutting path id: path8628)
(Change tool to Default tool)

G00 Z5
G00 X20.495498 Y62.868944

G01 Z0 F100.0(Penetrate)
G01 X20.073412 Y62.868944 Z0 F400.000000
G01 X13.652857 Y62.798389 Z0
G00 Z5

(End cutting path id: path8628)


(Start cutting path id: path8626)
(Change tool to Default tool)

G00 Z5
G00 X43.682432 Y50.145971

G01 Z0 F100.0(Penetrate)
G01 X46.226694 Y47.672265 Z0 F400.000000
G01 X46.226694 Y22.650468 Z0
G01 X40.711343 Y17.145459 Z0
G01 X36.395793 Y17.147716 Z0
G00 Z5

(End cutting path id: path8626)


(Start cutting path id: path8624)
(Change tool to Default tool)

G00 Z5
G00 X24.306745 Y42.544539

G01 Z0 F100.0(Penetrate)
G01 X25.894245 Y42.544539 Z0 F400.000000
G01 X28.448858 Y39.985647 Z0
G01 X30.258357 Y39.987905 Z0
G00 Z5

(End cutting path id: path8624)


(Start cutting path id: path8622)
(Change tool to Default tool)

G00 Z5
G00 X31.869321 Y42.474432

G01 Z0 F100.0(Penetrate)
G01 X36.043416 Y42.474432 Z0 F400.000000
G01 X43.743214 Y50.124339 Z0
G01 X43.743214 Y52.302824 Z0
G00 Z5

(End cutting path id: path8622)


(Start cutting path id: path8620)
(Change tool to Default tool)

G00 Z5
G00 X28.458073 Y63.671579

G01 Z0 F100.0(Penetrate)
G01 X28.464310 Y64.264028 Z0 F400.000000
G01 X29.549423 Y65.423976 Z0
G01 X44.815859 Y65.374084 Z0
G01 X46.250206 Y63.939741 Z0
G01 X46.275154 Y58.663839 Z0
G01 X42.371798 Y55.165655 Z0
G01 X34.313952 Y55.165655 Z0
G00 Z5

(End cutting path id: path8620)


(Start cutting path id: path8618)
(Change tool to Default tool)

G00 Z5
G00 X34.219800 Y57.784539

G01 Z0 F100.0(Penetrate)
G01 X39.917161 Y57.784539 Z0 F400.000000
G01 X41.204800 Y58.719400 Z0
G01 X41.204800 Y60.042317 Z0
G00 Z5

(End cutting path id: path8618)


(Start cutting path id: path8616)
(Change tool to Default tool)

G00 Z5
G00 X30.303967 Y52.704539

G01 Z0 F100.0(Penetrate)
G01 X29.316189 Y52.704539 Z0 F400.000000
G01 X27.375912 Y54.644817 Z0
G01 X27.375912 Y58.842872 Z0
G01 X30.991884 Y61.259400 Z0
G01 X31.027161 Y62.264817 Z0
G00 Z5

(End cutting path id: path8616)


(Start cutting path id: path8614)
(Change tool to Default tool)

G00 Z5
G00 X35.760765 Y60.634506

G01 Z0 F100.0(Penetrate)
G01 X33.790097 Y62.555285 Z0 F400.000000
G00 Z5

(End cutting path id: path8614)


(Start cutting path id: path8612)
(Change tool to Default tool)

G00 Z5
G00 X20.002831 Y63.411486

G01 Z0 F100.0(Penetrate)
G01 X20.002831 Y62.326398 Z0 F400.000000
G03 X20.249418 Y61.731081 Z0 I0.841909 J0.000000
G03 X20.844725 Y61.484495 Z0 I0.595307 J0.595302
G03 X21.440041 Y61.731082 Z0 I-0.000000 J0.841903
G03 X21.686628 Y62.326398 Z0 I-0.595315 J0.595315
G01 X21.686628 Y63.411486 Z0
G03 X21.440041 Y64.006802 Z0 I-0.841908 J-0.000000
G03 X20.844725 Y64.253391 Z0 I-0.595315 J-0.595312
G03 X20.249420 Y64.006807 Z0 I-0.000000 J-0.841886
G03 X20.002831 Y63.411486 Z0 I0.595325 J-0.595321
G01 X20.002831 Y63.411486 Z0
G00 Z5

(End cutting path id: path8612)


(Start cutting path id: path8612)
(Change tool to Default tool)

G00 Z5
G00 X20.844469 Y62.580527

G01 Z0 F100.0(Penetrate)
G03 X21.049306 Y62.665374 Z0 I0.000000 J0.289684 F400.000000
G03 X21.134153 Y62.870212 Z0 I-0.204838 J0.204838
G03 X21.049305 Y63.075052 Z0 I-0.289689 J-0.000000
G03 X20.844469 Y63.159899 Z0 I-0.204837 J-0.204836
G03 X20.639629 Y63.075051 Z0 I0.000000 J-0.289687
G03 X20.554782 Y62.870212 Z0 I0.204840 J-0.204840
G03 X20.639629 Y62.665374 Z0 I0.289682 J0.000000
G03 X20.844469 Y62.580527 Z0 I0.204839 J0.204843
G01 X20.844469 Y62.580527 Z0
G00 Z5

(End cutting path id: path8612)


(Start cutting path id: path8610)
(Change tool to Default tool)

G00 Z5
G00 X22.542831 Y63.411486

G01 Z0 F100.0(Penetrate)
G01 X22.542831 Y62.326398 Z0 F400.000000
G03 X22.789418 Y61.731081 Z0 I0.841909 J0.000000
G03 X23.384725 Y61.484495 Z0 I0.595307 J0.595302
G03 X23.980041 Y61.731082 Z0 I-0.000000 J0.841903
G03 X24.226628 Y62.326398 Z0 I-0.595315 J0.595315
G01 X24.226628 Y63.411486 Z0
G03 X23.980041 Y64.006802 Z0 I-0.841908 J-0.000000
G03 X23.384725 Y64.253391 Z0 I-0.595315 J-0.595312
G03 X22.789420 Y64.006807 Z0 I-0.000000 J-0.841886
G03 X22.542831 Y63.411486 Z0 I0.595325 J-0.595321
G01 X22.542831 Y63.411486 Z0
G00 Z5

(End cutting path id: path8610)


(Start cutting path id: path8610)
(Change tool to Default tool)

G00 Z5
G00 X23.384469 Y62.580527

G01 Z0 F100.0(Penetrate)
G03 X23.589306 Y62.665374 Z0 I0.000000 J0.289684 F400.000000
G03 X23.674153 Y62.870212 Z0 I-0.204838 J0.204838
G03 X23.589305 Y63.075052 Z0 I-0.289689 J-0.000000
G03 X23.384469 Y63.159899 Z0 I-0.204837 J-0.204836
G03 X23.179629 Y63.075051 Z0 I0.000000 J-0.289687
G03 X23.094782 Y62.870212 Z0 I0.204840 J-0.204840
G03 X23.179629 Y62.665374 Z0 I0.289682 J-0.000000
G03 X23.384469 Y62.580527 Z0 I0.204839 J0.204843
G01 X23.384469 Y62.580527 Z0
G00 Z5

(End cutting path id: path8610)


(Start cutting path id: path8608)
(Change tool to Default tool)

G00 Z5
G00 X25.082831 Y63.411486

G01 Z0 F100.0(Penetrate)
G01 X25.082831 Y62.326398 Z0 F400.000000
G03 X25.329418 Y61.731081 Z0 I0.841909 J0.000000
G03 X25.924725 Y61.484495 Z0 I0.595307 J0.595302
G03 X26.520041 Y61.731082 Z0 I-0.000000 J0.841903
G03 X26.766628 Y62.326398 Z0 I-0.595315 J0.595315
G01 X26.766628 Y63.411486 Z0
G03 X26.520041 Y64.006802 Z0 I-0.841908 J-0.000000
G03 X25.924725 Y64.253391 Z0 I-0.595315 J-0.595312
G03 X25.329420 Y64.006807 Z0 I-0.000000 J-0.841886
G03 X25.082831 Y63.411486 Z0 I0.595325 J-0.595321
G01 X25.082831 Y63.411486 Z0
G00 Z5

(End cutting path id: path8608)


(Start cutting path id: path8608)
(Change tool to Default tool)

G00 Z5
G00 X25.924469 Y62.580527

G01 Z0 F100.0(Penetrate)
G03 X26.129306 Y62.665374 Z0 I-0.000000 J0.289684 F400.000000
G03 X26.214153 Y62.870212 Z0 I-0.204838 J0.204838
G03 X26.129305 Y63.075052 Z0 I-0.289689 J0.000000
G03 X25.924469 Y63.159899 Z0 I-0.204837 J-0.204836
G03 X25.719629 Y63.075051 Z0 I-0.000000 J-0.289687
G03 X25.634782 Y62.870212 Z0 I0.204840 J-0.204840
G03 X25.719629 Y62.665374 Z0 I0.289682 J-0.000000
G03 X25.924469 Y62.580527 Z0 I0.204839 J0.204843
G01 X25.924469 Y62.580527 Z0
G00 Z5

(End cutting path id: path8608)


(Start cutting path id: path8606)
(Change tool to Default tool)

G00 Z5
G00 X27.622831 Y63.411486

G01 Z0 F100.0(Penetrate)
G01 X27.622831 Y62.326398 Z0 F400.000000
G03 X27.869418 Y61.731080 Z0 I0.841909 J0.000000
G03 X28.464725 Y61.484495 Z0 I0.595307 J0.595301
G03 X29.060040 Y61.731082 Z0 I-0.000000 J0.841903
G03 X29.306627 Y62.326398 Z0 I-0.595315 J0.595315
G01 X29.306627 Y63.411486 Z0
G03 X29.060040 Y64.006802 Z0 I-0.841908 J-0.000000
G03 X28.464725 Y64.253391 Z0 I-0.595315 J-0.595312
G03 X27.869420 Y64.006807 Z0 I-0.000000 J-0.841885
G03 X27.622831 Y63.411486 Z0 I0.595325 J-0.595321
G01 X27.622831 Y63.411486 Z0
G00 Z5

(End cutting path id: path8606)


(Start cutting path id: path8606)
(Change tool to Default tool)

G00 Z5
G00 X28.464468 Y62.580527

G01 Z0 F100.0(Penetrate)
G03 X28.669305 Y62.665374 Z0 I0.000000 J0.289684 F400.000000
G03 X28.754152 Y62.870212 Z0 I-0.204838 J0.204838
G03 X28.669304 Y63.075052 Z0 I-0.289689 J0.000000
G03 X28.464468 Y63.159899 Z0 I-0.204837 J-0.204836
G03 X28.259629 Y63.075051 Z0 I0.000000 J-0.289686
G03 X28.174782 Y62.870212 Z0 I0.204841 J-0.204840
G03 X28.259629 Y62.665374 Z0 I0.289683 J-0.000000
G03 X28.464468 Y62.580527 Z0 I0.204839 J0.204841
G01 X28.464468 Y62.580527 Z0
G00 Z5

(End cutting path id: path8606)


(Start cutting path id: path8604)
(Change tool to Default tool)

G00 Z5
G00 X30.162830 Y63.411486

G01 Z0 F100.0(Penetrate)
G01 X30.162830 Y62.326398 Z0 F400.000000
G03 X30.409417 Y61.731081 Z0 I0.841909 J0.000000
G03 X31.004725 Y61.484495 Z0 I0.595307 J0.595302
G03 X31.600040 Y61.731082 Z0 I0.000000 J0.841903
G03 X31.846627 Y62.326398 Z0 I-0.595315 J0.595315
G01 X31.846627 Y63.411486 Z0
G03 X31.600040 Y64.006802 Z0 I-0.841908 J-0.000000
G03 X31.004725 Y64.253391 Z0 I-0.595315 J-0.595312
G03 X30.409419 Y64.006807 Z0 I0.000000 J-0.841886
G03 X30.162830 Y63.411486 Z0 I0.595325 J-0.595321
G01 X30.162830 Y63.411486 Z0
G00 Z5

(End cutting path id: path8604)


(Start cutting path id: path8604)
(Change tool to Default tool)

G00 Z5
G00 X31.004468 Y62.580527

G01 Z0 F100.0(Penetrate)
G03 X31.209305 Y62.665374 Z0 I0.000000 J0.289684 F400.000000
G03 X31.294152 Y62.870212 Z0 I-0.204838 J0.204838
G03 X31.209305 Y63.075052 Z0 I-0.289689 J-0.000000
G03 X31.004468 Y63.159899 Z0 I-0.204837 J-0.204836
G03 X30.799628 Y63.075051 Z0 I0.000000 J-0.289687
G03 X30.714781 Y62.870212 Z0 I0.204840 J-0.204840
G03 X30.799628 Y62.665374 Z0 I0.289682 J0.000000
G03 X31.004468 Y62.580527 Z0 I0.204839 J0.204843
G01 X31.004468 Y62.580527 Z0
G00 Z5

(End cutting path id: path8604)


(Start cutting path id: path8602)
(Change tool to Default tool)

G00 Z5
G00 X32.702830 Y63.411486

G01 Z0 F100.0(Penetrate)
G01 X32.702830 Y62.326398 Z0 F400.000000
G03 X32.949417 Y61.731081 Z0 I0.841909 J0.000000
G03 X33.544725 Y61.484495 Z0 I0.595307 J0.595302
G03 X34.140040 Y61.731082 Z0 I-0.000000 J0.841903
G03 X34.386627 Y62.326398 Z0 I-0.595315 J0.595315
G01 X34.386627 Y63.411486 Z0
G03 X34.140040 Y64.006802 Z0 I-0.841908 J-0.000000
G03 X33.544725 Y64.253391 Z0 I-0.595315 J-0.595312
G03 X32.949419 Y64.006807 Z0 I0.000000 J-0.841886
G03 X32.702830 Y63.411486 Z0 I0.595325 J-0.595321
G01 X32.702830 Y63.411486 Z0
G00 Z5

(End cutting path id: path8602)


(Start cutting path id: path8602)
(Change tool to Default tool)

G00 Z5
G00 X33.544468 Y62.580527

G01 Z0 F100.0(Penetrate)
G03 X33.749306 Y62.665374 Z0 I0.000000 J0.289684 F400.000000
G03 X33.834152 Y62.870212 Z0 I-0.204838 J0.204838
G03 X33.749305 Y63.075052 Z0 I-0.289689 J0.000000
G03 X33.544468 Y63.159899 Z0 I-0.204837 J-0.204836
G03 X33.339628 Y63.075051 Z0 I-0.000000 J-0.289687
G03 X33.254781 Y62.870212 Z0 I0.204840 J-0.204840
G03 X33.339629 Y62.665374 Z0 I0.289682 J0.000000
G03 X33.544468 Y62.580527 Z0 I0.204839 J0.204843
G01 X33.544468 Y62.580527 Z0
G00 Z5

(End cutting path id: path8602)


(Start cutting path id: path8600)
(Change tool to Default tool)

G00 Z5
G00 X43.356745 Y60.324539

G01 Z0 F100.0(Penetrate)
G01 X41.628134 Y60.324539 Z0 F400.000000
G00 Z5

(End cutting path id: path8600)


(Start cutting path id: path8598)
(Change tool to Default tool)

G00 Z5
G00 X35.183341 Y60.390350

G01 Z0 F100.0(Penetrate)
G03 X35.432299 Y59.789311 Z0 I0.850000 J-0.000000 F400.000000
G03 X36.033340 Y59.540351 Z0 I0.601042 J0.601039
G03 X36.634381 Y59.789310 Z0 I0.000000 J0.850000
G03 X36.883340 Y60.390350 Z0 I-0.601041 J0.601041
G03 X36.634380 Y60.991392 Z0 I-0.850000 J-0.000000
G03 X36.033340 Y61.240350 Z0 I-0.601039 J-0.601042
G03 X35.432300 Y60.991391 Z0 I0.000000 J-0.850000
G03 X35.183341 Y60.390350 Z0 I0.601041 J-0.601041
G01 X35.183341 Y60.390350 Z0
G00 Z5

(End cutting path id: path8598)


(Start cutting path id: path8598)
(Change tool to Default tool)

G00 Z5
G00 X35.783167 Y60.393172

G01 Z0 F100.0(Penetrate)
G03 X35.856391 Y60.216394 Z0 I0.250003 J0.000000 F400.000000
G03 X36.033166 Y60.143172 Z0 I0.176774 J0.176774
G03 X36.209946 Y60.216396 Z0 I0.000000 J0.250006
G03 X36.283169 Y60.393172 Z0 I-0.176776 J0.176776
G03 X36.209946 Y60.569949 Z0 I-0.249999 J-0.000000
G03 X36.033166 Y60.643173 Z0 I-0.176780 J-0.176781
G03 X35.856391 Y60.569951 Z0 I-0.000000 J-0.249996
G03 X35.783167 Y60.393172 Z0 I0.176779 J-0.176778
G01 X35.783167 Y60.393172 Z0
G00 Z5

(End cutting path id: path8598)


(Start cutting path id: path8596)
(Change tool to Default tool)

G00 Z5
G00 X40.333309 Y60.342629

G01 Z0 F100.0(Penetrate)
G03 X40.582267 Y59.741590 Z0 I0.850000 J0.000000 F400.000000
G03 X41.183309 Y59.492630 Z0 I0.601042 J0.601039
G03 X41.784350 Y59.741589 Z0 I0.000000 J0.850000
G03 X42.033309 Y60.342629 Z0 I-0.601041 J0.601041
G03 X41.784348 Y60.943671 Z0 I-0.850000 J-0.000000
G03 X41.183309 Y61.192629 Z0 I-0.601039 J-0.601042
G03 X40.582268 Y60.943670 Z0 I-0.000000 J-0.850000
G03 X40.333309 Y60.342629 Z0 I0.601041 J-0.601041
G01 X40.333309 Y60.342629 Z0
G00 Z5

(End cutting path id: path8596)


(Start cutting path id: path8596)
(Change tool to Default tool)

G00 Z5
G00 X40.933136 Y60.345452

G01 Z0 F100.0(Penetrate)
G03 X41.006360 Y60.168673 Z0 I0.250003 J0.000000 F400.000000
G03 X41.183134 Y60.095451 Z0 I0.176774 J0.176774
G03 X41.359914 Y60.168675 Z0 I0.000000 J0.250006
G03 X41.433138 Y60.345452 Z0 I-0.176776 J0.176776
G03 X41.359914 Y60.522228 Z0 I-0.249999 J0.000000
G03 X41.183134 Y60.595452 Z0 I-0.176780 J-0.176781
G03 X41.006360 Y60.522230 Z0 I0.000000 J-0.249996
G03 X40.933136 Y60.345452 Z0 I0.176779 J-0.176778
G01 X40.933136 Y60.345452 Z0
G00 Z5

(End cutting path id: path8596)


(Start cutting path id: path8594)
(Change tool to Default tool)

G00 Z5
G00 X42.853757 Y52.703576

G01 Z0 F100.0(Penetrate)
G03 X43.102716 Y52.102536 Z0 I0.850000 J0.000000 F400.000000
G03 X43.703757 Y51.853577 Z0 I0.601041 J0.601041
G03 X44.304797 Y52.102536 Z0 I0.000000 J0.850000
G03 X44.553756 Y52.703576 Z0 I-0.601041 J0.601041
G03 X44.304796 Y53.304618 Z0 I-0.850000 J-0.000000
G03 X43.703757 Y53.553576 Z0 I-0.601039 J-0.601042
G03 X43.102717 Y53.304618 Z0 I-0.000000 J-0.850000
G03 X42.853757 Y52.703576 Z0 I0.601039 J-0.601042
G01 X42.853757 Y52.703576 Z0
G00 Z5

(End cutting path id: path8594)


(Start cutting path id: path8594)
(Change tool to Default tool)

G00 Z5
G00 X43.453586 Y52.706399

G01 Z0 F100.0(Penetrate)
G03 X43.526810 Y52.529619 Z0 I0.250005 J-0.000000 F400.000000
G03 X43.703582 Y52.456398 Z0 I0.176771 J0.176770
G03 X43.880362 Y52.529622 Z0 I0.000000 J0.250006
G03 X43.953585 Y52.706399 Z0 I-0.176776 J0.176776
G03 X43.880362 Y52.883175 Z0 I-0.249999 J0.000000
G03 X43.703582 Y52.956400 Z0 I-0.176780 J-0.176781
G03 X43.526810 Y52.883178 Z0 I0.000000 J-0.249991
G03 X43.453586 Y52.706399 Z0 I0.176781 J-0.176779
G01 X43.453586 Y52.706399 Z0
G00 Z5

(End cutting path id: path8594)


(Start cutting path id: path8592)
(Change tool to Default tool)

G00 Z5
G00 X42.867747 Y60.274859

G01 Z0 F100.0(Penetrate)
G03 X43.116705 Y59.673820 Z0 I0.850000 J-0.000000 F400.000000
G03 X43.717746 Y59.424860 Z0 I0.601042 J0.601039
G03 X44.318787 Y59.673819 Z0 I-0.000000 J0.850000
G03 X44.567746 Y60.274859 Z0 I-0.601041 J0.601041
G03 X44.318786 Y60.875901 Z0 I-0.850000 J-0.000000
G03 X43.717746 Y61.124859 Z0 I-0.601039 J-0.601042
G03 X43.116706 Y60.875900 Z0 I-0.000000 J-0.850000
G03 X42.867747 Y60.274859 Z0 I0.601041 J-0.601041
G01 X42.867747 Y60.274859 Z0
G00 Z5

(End cutting path id: path8592)


(Start cutting path id: path8592)
(Change tool to Default tool)

G00 Z5
G00 X43.467573 Y60.277681

G01 Z0 F100.0(Penetrate)
G03 X43.540797 Y60.100903 Z0 I0.250003 J0.000000 F400.000000
G03 X43.717571 Y60.027681 Z0 I0.176774 J0.176774
G03 X43.894352 Y60.100905 Z0 I0.000000 J0.250006
G03 X43.967575 Y60.277681 Z0 I-0.176776 J0.176776
G03 X43.894352 Y60.454458 Z0 I-0.249999 J0.000000
G03 X43.717571 Y60.527682 Z0 I-0.176780 J-0.176781
G03 X43.540797 Y60.454460 Z0 I-0.000000 J-0.249996
G03 X43.467573 Y60.277681 Z0 I0.176779 J-0.176778
G01 X43.467573 Y60.277681 Z0
G00 Z5

(End cutting path id: path8592)


(Start cutting path id: path8590)
(Change tool to Default tool)

G00 Z5
G00 X42.858704 Y62.888621

G01 Z0 F100.0(Penetrate)
G03 X43.107662 Y62.287582 Z0 I0.850000 J-0.000000 F400.000000
G03 X43.708704 Y62.038621 Z0 I0.601042 J0.601039
G03 X44.309745 Y62.287580 Z0 I0.000000 J0.850000
G03 X44.558704 Y62.888621 Z0 I-0.601041 J0.601041
G03 X44.309743 Y63.489663 Z0 I-0.850000 J-0.000000
G03 X43.708704 Y63.738621 Z0 I-0.601039 J-0.601042
G03 X43.107664 Y63.489661 Z0 I0.000000 J-0.850000
G03 X42.858704 Y62.888621 Z0 I0.601041 J-0.601041
G01 X42.858704 Y62.888621 Z0
G00 Z5

(End cutting path id: path8590)


(Start cutting path id: path8590)
(Change tool to Default tool)

G00 Z5
G00 X43.458531 Y62.891443

G01 Z0 F100.0(Penetrate)
G03 X43.531755 Y62.714665 Z0 I0.250003 J-0.000000 F400.000000
G03 X43.708529 Y62.641442 Z0 I0.176774 J0.176774
G03 X43.885309 Y62.714667 Z0 I0.000000 J0.250006
G03 X43.958533 Y62.891443 Z0 I-0.176776 J0.176776
G03 X43.885309 Y63.068219 Z0 I-0.249999 J-0.000000
G03 X43.708529 Y63.141444 Z0 I-0.176780 J-0.176781
G03 X43.531755 Y63.068221 Z0 I-0.000000 J-0.249996
G03 X43.458531 Y62.891443 Z0 I0.176779 J-0.176778
G01 X43.458531 Y62.891443 Z0
G00 Z5

(End cutting path id: path8590)


(Start cutting path id: path8588)
(Change tool to Default tool)

G00 Z5
G00 X37.721645 Y67.933659

G01 Z0 F100.0(Penetrate)
G03 X37.970603 Y67.332620 Z0 I0.850000 J0.000000 F400.000000
G03 X38.571644 Y67.083660 Z0 I0.601042 J0.601039
G03 X39.172685 Y67.332619 Z0 I0.000000 J0.850000
G03 X39.421644 Y67.933659 Z0 I-0.601041 J0.601041
G03 X39.172684 Y68.534701 Z0 I-0.850000 J-0.000000
G03 X38.571644 Y68.783659 Z0 I-0.601039 J-0.601042
G03 X37.970604 Y68.534700 Z0 I-0.000000 J-0.850000
G03 X37.721645 Y67.933659 Z0 I0.601041 J-0.601041
G01 X37.721645 Y67.933659 Z0
G00 Z5

(End cutting path id: path8588)


(Start cutting path id: path8588)
(Change tool to Default tool)

G00 Z5
G00 X38.321471 Y67.936481

G01 Z0 F100.0(Penetrate)
G03 X38.394695 Y67.759703 Z0 I0.250003 J-0.000000 F400.000000
G03 X38.571469 Y67.686481 Z0 I0.176774 J0.176774
G03 X38.748250 Y67.759705 Z0 I0.000000 J0.250006
G03 X38.821473 Y67.936481 Z0 I-0.176776 J0.176776
G03 X38.748250 Y68.113258 Z0 I-0.249999 J-0.000000
G03 X38.571469 Y68.186482 Z0 I-0.176780 J-0.176781
G03 X38.394695 Y68.113260 Z0 I-0.000000 J-0.249996
G03 X38.321471 Y67.936481 Z0 I0.176779 J-0.176778
G01 X38.321471 Y67.936481 Z0
G00 Z5

(End cutting path id: path8588)


(Start cutting path id: path8586)
(Change tool to Default tool)

G00 Z5
G00 X37.777262 Y62.891296

G01 Z0 F100.0(Penetrate)
G03 X38.026220 Y62.290257 Z0 I0.850000 J0.000000 F400.000000
G03 X38.627262 Y62.041297 Z0 I0.601042 J0.601039
G03 X39.228302 Y62.290256 Z0 I0.000000 J0.850000
G03 X39.477262 Y62.891296 Z0 I-0.601041 J0.601041
G03 X39.228301 Y63.492338 Z0 I-0.850000 J0.000000
G03 X38.627262 Y63.741296 Z0 I-0.601039 J-0.601042
G03 X38.026221 Y63.492337 Z0 I-0.000000 J-0.850000
G03 X37.777262 Y62.891296 Z0 I0.601041 J-0.601041
G01 X37.777262 Y62.891296 Z0
G00 Z5

(End cutting path id: path8586)


(Start cutting path id: path8586)
(Change tool to Default tool)

G00 Z5
G00 X38.377089 Y62.894119

G01 Z0 F100.0(Penetrate)
G03 X38.450313 Y62.717340 Z0 I0.250003 J0.000000 F400.000000
G03 X38.627087 Y62.644118 Z0 I0.176774 J0.176774
G03 X38.803867 Y62.717342 Z0 I0.000000 J0.250006
G03 X38.877091 Y62.894119 Z0 I-0.176776 J0.176776
G03 X38.803867 Y63.070895 Z0 I-0.249999 J0.000000
G03 X38.627087 Y63.144119 Z0 I-0.176780 J-0.176781
G03 X38.450313 Y63.070897 Z0 I0.000000 J-0.249996
G03 X38.377089 Y62.894119 Z0 I0.176779 J-0.176778
G01 X38.377089 Y62.894119 Z0
G00 Z5

(End cutting path id: path8586)


(Start cutting path id: path8584)
(Change tool to Default tool)

G00 Z5
G00 X42.891002 Y67.933617

G01 Z0 F100.0(Penetrate)
G03 X43.139960 Y67.332578 Z0 I0.850000 J0.000000 F400.000000
G03 X43.741002 Y67.083617 Z0 I0.601042 J0.601039
G03 X44.342042 Y67.332576 Z0 I0.000000 J0.850000
G03 X44.591001 Y67.933617 Z0 I-0.601041 J0.601041
G03 X44.342041 Y68.534659 Z0 I-0.850000 J-0.000000
G03 X43.741002 Y68.783617 Z0 I-0.601039 J-0.601042
G03 X43.139961 Y68.534657 Z0 I0.000000 J-0.850000
G03 X42.891002 Y67.933617 Z0 I0.601041 J-0.601041
G01 X42.891002 Y67.933617 Z0
G00 Z5

(End cutting path id: path8584)


(Start cutting path id: path8584)
(Change tool to Default tool)

G00 Z5
G00 X43.490829 Y67.936439

G01 Z0 F100.0(Penetrate)
G03 X43.564052 Y67.759661 Z0 I0.250003 J-0.000000 F400.000000
G03 X43.740827 Y67.686438 Z0 I0.176774 J0.176774
G03 X43.917607 Y67.759663 Z0 I0.000000 J0.250006
G03 X43.990830 Y67.936439 Z0 I-0.176776 J0.176776
G03 X43.917607 Y68.113215 Z0 I-0.249999 J-0.000000
G03 X43.740827 Y68.186440 Z0 I-0.176780 J-0.176781
G03 X43.564052 Y68.113217 Z0 I-0.000000 J-0.249996
G03 X43.490829 Y67.936439 Z0 I0.176779 J-0.176778
G01 X43.490829 Y67.936439 Z0
G00 Z5

(End cutting path id: path8584)


(Start cutting path id: path8580)
(Change tool to Default tool)

G00 Z5
G00 X27.029961 Y19.774342

G01 Z0 F100.0(Penetrate)
G01 X27.029961 Y35.912316 Z0 F400.000000
G01 X25.421408 Y37.520867 Z0
G01 X24.130357 Y37.520867 Z0
G00 Z5

(End cutting path id: path8580)


(Start cutting path id: path8578)
(Change tool to Default tool)

G00 Z5
G00 X43.707268 Y60.702996

G01 Z0 F100.0(Penetrate)
G01 X43.708114 Y62.440805 Z0 F400.000000
G00 Z5

(End cutting path id: path8578)


(Start cutting path id: path8576)
(Change tool to Default tool)

G00 Z5
G00 X48.788193 Y40.357590

G01 Z0 F100.0(Penetrate)
G01 X48.788193 Y65.686761 Z0 F400.000000
G01 X46.485472 Y67.952066 Z0
G01 X44.090057 Y67.939592 Z0
G00 Z5

(End cutting path id: path8576)


(Start cutting path id: path8574)
(Change tool to Default tool)

G00 Z5
G00 X48.789523 Y35.294955

G01 Z0 F100.0(Penetrate)
G01 X48.789523 Y39.581205 Z0 F400.000000
G00 Z5

(End cutting path id: path8574)


(Start cutting path id: path8572)
(Change tool to Default tool)

G00 Z5
G00 X36.487233 Y14.601135

G01 Z0 F100.0(Penetrate)
G01 X43.286189 Y14.604522 Z0 F400.000000
G01 X48.789523 Y20.107858 Z0
G01 X48.789523 Y34.607025 Z0
G00 Z5

(End cutting path id: path8572)


(Start cutting path id: path8570)
(Change tool to Default tool)

G00 Z5
G00 X38.953745 Y34.932929

G01 Z0 F100.0(Penetrate)
G01 X43.418927 Y34.932929 Z0 F400.000000
G00 Z5

(End cutting path id: path8570)


(Start cutting path id: path8568)
(Change tool to Default tool)

G00 Z5
G00 X38.953742 Y39.996797

G01 Z0 F100.0(Penetrate)
G01 X43.431401 Y39.996797 Z0 F400.000000
G00 Z5

(End cutting path id: path8568)


(Start cutting path id: path8560)
(Change tool to Default tool)

G00 Z5
G00 X31.682233 Y34.928524

G01 Z0 F100.0(Penetrate)
G01 X38.300164 Y34.927113 Z0 F400.000000
G00 Z5

(End cutting path id: path8560)


(Start cutting path id: path8558)
(Change tool to Default tool)

G00 Z5
G00 X31.744596 Y37.435512

G01 Z0 F100.0(Penetrate)
G01 X35.705424 Y37.427892 Z0 F400.000000
G01 X38.422397 Y39.886324 Z0
G00 Z5

(End cutting path id: path8558)


(Start cutting path id: path8556)
(Change tool to Default tool)

G00 Z5
G00 X37.778194 Y34.924812

G01 Z0 F100.0(Penetrate)
G03 X38.027151 Y34.323773 Z0 I0.850000 J0.000000 F400.000000
G03 X38.628193 Y34.074813 Z0 I0.601042 J0.601039
G03 X39.229234 Y34.323772 Z0 I0.000000 J0.850000
G03 X39.478193 Y34.924812 Z0 I-0.601041 J0.601041
G03 X39.229233 Y35.525854 Z0 I-0.850000 J-0.000000
G03 X38.628193 Y35.774812 Z0 I-0.601039 J-0.601042
G03 X38.027153 Y35.525853 Z0 I-0.000000 J-0.850000
G03 X37.778194 Y34.924812 Z0 I0.601041 J-0.601041
G01 X37.778194 Y34.924812 Z0
G00 Z5

(End cutting path id: path8556)


(Start cutting path id: path8556)
(Change tool to Default tool)

G00 Z5
G00 X38.378020 Y34.927635

G01 Z0 F100.0(Penetrate)
G03 X38.451244 Y34.750856 Z0 I0.250003 J0.000000 F400.000000
G03 X38.628018 Y34.677634 Z0 I0.176774 J0.176774
G03 X38.804799 Y34.750858 Z0 I0.000000 J0.250006
G03 X38.878022 Y34.927635 Z0 I-0.176776 J0.176776
G03 X38.804799 Y35.104411 Z0 I-0.249999 J-0.000000
G03 X38.628018 Y35.177636 Z0 I-0.176780 J-0.176781
G03 X38.451244 Y35.104413 Z0 I-0.000000 J-0.249996
G03 X38.378020 Y34.927635 Z0 I0.176779 J-0.176778
G01 X38.378020 Y34.927635 Z0
G00 Z5

(End cutting path id: path8556)


(Start cutting path id: path8554)
(Change tool to Default tool)

G00 Z5
G00 X37.778194 Y40.004812

G01 Z0 F100.0(Penetrate)
G03 X38.027151 Y39.403773 Z0 I0.850000 J0.000000 F400.000000
G03 X38.628193 Y39.154813 Z0 I0.601042 J0.601039
G03 X39.229234 Y39.403772 Z0 I0.000000 J0.850000
G03 X39.478193 Y40.004812 Z0 I-0.601041 J0.601041
G03 X39.229233 Y40.605854 Z0 I-0.850000 J-0.000000
G03 X38.628193 Y40.854812 Z0 I-0.601039 J-0.601042
G03 X38.027153 Y40.605853 Z0 I-0.000000 J-0.850000
G03 X37.778194 Y40.004812 Z0 I0.601041 J-0.601041
G01 X37.778194 Y40.004812 Z0
G00 Z5

(End cutting path id: path8554)


(Start cutting path id: path8554)
(Change tool to Default tool)

G00 Z5
G00 X38.378020 Y40.007635

G01 Z0 F100.0(Penetrate)
G03 X38.451244 Y39.830856 Z0 I0.250003 J0.000000 F400.000000
G03 X38.628018 Y39.757634 Z0 I0.176774 J0.176774
G03 X38.804799 Y39.830858 Z0 I0.000000 J0.250006
G03 X38.878022 Y40.007635 Z0 I-0.176776 J0.176776
G03 X38.804799 Y40.184411 Z0 I-0.249999 J0.000000
G03 X38.628018 Y40.257636 Z0 I-0.176780 J-0.176781
G03 X38.451244 Y40.184413 Z0 I-0.000000 J-0.249996
G03 X38.378020 Y40.007635 Z0 I0.176779 J-0.176778
G01 X38.378020 Y40.007635 Z0
G00 Z5

(End cutting path id: path8554)


(Start cutting path id: path8552)
(Change tool to Default tool)

G00 Z5
G00 X47.938194 Y34.924812

G01 Z0 F100.0(Penetrate)
G03 X48.187151 Y34.323773 Z0 I0.850000 J0.000000 F400.000000
G03 X48.788193 Y34.074813 Z0 I0.601042 J0.601039
G03 X49.389234 Y34.323772 Z0 I0.000000 J0.850000
G03 X49.638193 Y34.924812 Z0 I-0.601041 J0.601041
G03 X49.389233 Y35.525854 Z0 I-0.850000 J-0.000000
G03 X48.788193 Y35.774812 Z0 I-0.601039 J-0.601042
G03 X48.187153 Y35.525853 Z0 I-0.000000 J-0.850000
G03 X47.938194 Y34.924812 Z0 I0.601041 J-0.601041
G01 X47.938194 Y34.924812 Z0
G00 Z5

(End cutting path id: path8552)


(Start cutting path id: path8552)
(Change tool to Default tool)

G00 Z5
G00 X48.538020 Y34.927635

G01 Z0 F100.0(Penetrate)
G03 X48.611244 Y34.750856 Z0 I0.250003 J0.000000 F400.000000
G03 X48.788018 Y34.677634 Z0 I0.176774 J0.176774
G03 X48.964799 Y34.750858 Z0 I0.000000 J0.250006
G03 X49.038022 Y34.927635 Z0 I-0.176776 J0.176776
G03 X48.964799 Y35.104411 Z0 I-0.249999 J-0.000000
G03 X48.788018 Y35.177636 Z0 I-0.176780 J-0.176781
G03 X48.611244 Y35.104413 Z0 I0.000000 J-0.249996
G03 X48.538020 Y34.927635 Z0 I0.176779 J-0.176778
G01 X48.538020 Y34.927635 Z0
G00 Z5

(End cutting path id: path8552)


(Start cutting path id: path8550)
(Change tool to Default tool)

G00 Z5
G00 X47.938194 Y40.004812

G01 Z0 F100.0(Penetrate)
G03 X48.187151 Y39.403773 Z0 I0.850000 J-0.000000 F400.000000
G03 X48.788193 Y39.154813 Z0 I0.601042 J0.601039
G03 X49.389234 Y39.403772 Z0 I0.000000 J0.850000
G03 X49.638193 Y40.004812 Z0 I-0.601041 J0.601041
G03 X49.389233 Y40.605854 Z0 I-0.850000 J-0.000000
G03 X48.788193 Y40.854812 Z0 I-0.601039 J-0.601042
G03 X48.187153 Y40.605853 Z0 I-0.000000 J-0.850000
G03 X47.938194 Y40.004812 Z0 I0.601041 J-0.601041
G01 X47.938194 Y40.004812 Z0
G00 Z5

(End cutting path id: path8550)


(Start cutting path id: path8550)
(Change tool to Default tool)

G00 Z5
G00 X48.538020 Y40.007635

G01 Z0 F100.0(Penetrate)
G03 X48.611244 Y39.830856 Z0 I0.250003 J0.000000 F400.000000
G03 X48.788018 Y39.757634 Z0 I0.176774 J0.176774
G03 X48.964799 Y39.830858 Z0 I0.000000 J0.250006
G03 X49.038022 Y40.007635 Z0 I-0.176776 J0.176776
G03 X48.964799 Y40.184411 Z0 I-0.249999 J0.000000
G03 X48.788018 Y40.257636 Z0 I-0.176780 J-0.176781
G03 X48.611244 Y40.184413 Z0 I-0.000000 J-0.249996
G03 X48.538020 Y40.007635 Z0 I0.176779 J-0.176778
G01 X48.538020 Y40.007635 Z0
G00 Z5

(End cutting path id: path8550)


(Start cutting path id: path8548)
(Change tool to Default tool)

G00 Z5
G00 X42.858194 Y34.924812

G01 Z0 F100.0(Penetrate)
G03 X43.107151 Y34.323773 Z0 I0.850000 J0.000000 F400.000000
G03 X43.708193 Y34.074813 Z0 I0.601042 J0.601039
G03 X44.309234 Y34.323772 Z0 I0.000000 J0.850000
G03 X44.558193 Y34.924812 Z0 I-0.601041 J0.601041
G03 X44.309233 Y35.525854 Z0 I-0.850000 J-0.000000
G03 X43.708193 Y35.774812 Z0 I-0.601039 J-0.601042
G03 X43.107153 Y35.525853 Z0 I-0.000000 J-0.850000
G03 X42.858194 Y34.924812 Z0 I0.601041 J-0.601041
G01 X42.858194 Y34.924812 Z0
G00 Z5

(End cutting path id: path8548)


(Start cutting path id: path8548)
(Change tool to Default tool)

G00 Z5
G00 X43.458020 Y34.927635

G01 Z0 F100.0(Penetrate)
G03 X43.531244 Y34.750856 Z0 I0.250003 J0.000000 F400.000000
G03 X43.708018 Y34.677634 Z0 I0.176774 J0.176774
G03 X43.884799 Y34.750858 Z0 I0.000000 J0.250006
G03 X43.958022 Y34.927635 Z0 I-0.176776 J0.176776
G03 X43.884799 Y35.104411 Z0 I-0.249999 J-0.000000
G03 X43.708018 Y35.177636 Z0 I-0.176780 J-0.176781
G03 X43.531244 Y35.104413 Z0 I0.000000 J-0.249996
G03 X43.458020 Y34.927635 Z0 I0.176779 J-0.176778
G01 X43.458020 Y34.927635 Z0
G00 Z5

(End cutting path id: path8548)


(Start cutting path id: path8546)
(Change tool to Default tool)

G00 Z5
G00 X42.858194 Y40.004812

G01 Z0 F100.0(Penetrate)
G03 X43.107151 Y39.403773 Z0 I0.850000 J-0.000000 F400.000000
G03 X43.708193 Y39.154813 Z0 I0.601042 J0.601039
G03 X44.309234 Y39.403772 Z0 I-0.000000 J0.850000
G03 X44.558193 Y40.004812 Z0 I-0.601041 J0.601041
G03 X44.309233 Y40.605854 Z0 I-0.850000 J-0.000000
G03 X43.708193 Y40.854812 Z0 I-0.601039 J-0.601042
G03 X43.107153 Y40.605853 Z0 I-0.000000 J-0.850000
G03 X42.858194 Y40.004812 Z0 I0.601041 J-0.601041
G01 X42.858194 Y40.004812 Z0
G00 Z5

(End cutting path id: path8546)


(Start cutting path id: path8546)
(Change tool to Default tool)

G00 Z5
G00 X43.458020 Y40.007635

G01 Z0 F100.0(Penetrate)
G03 X43.531244 Y39.830856 Z0 I0.250003 J0.000000 F400.000000
G03 X43.708018 Y39.757634 Z0 I0.176774 J0.176774
G03 X43.884799 Y39.830858 Z0 I0.000000 J0.250006
G03 X43.958022 Y40.007635 Z0 I-0.176776 J0.176776
G03 X43.884799 Y40.184411 Z0 I-0.249999 J0.000000
G03 X43.708018 Y40.257636 Z0 I-0.176780 J-0.176781
G03 X43.531244 Y40.184413 Z0 I-0.000000 J-0.249996
G03 X43.458020 Y40.007635 Z0 I0.176779 J-0.176778
G01 X43.458020 Y40.007635 Z0
G00 Z5

(End cutting path id: path8546)


(Start cutting path id: path8534)
(Change tool to Default tool)

G00 Z5
G00 X30.679918 Y19.649261

G01 Z0 F100.0(Penetrate)
G01 X14.323134 Y19.649261 Z0 F400.000000
G00 Z5

(End cutting path id: path8534)


(Start cutting path id: path8532)
(Change tool to Default tool)

G00 Z5
G00 X36.089458 Y17.566695

G01 Z0 F100.0(Penetrate)
G01 X36.089458 Y18.477192 Z0 F400.000000
G01 X34.892090 Y19.674562 Z0
G01 X31.349877 Y19.674562 Z0
G00 Z5

(End cutting path id: path8532)


(Start cutting path id: path8528)
(Change tool to Default tool)

G00 Z5
G00 X36.089458 Y11.734858

G01 Z0 F100.0(Penetrate)
G01 X36.089458 Y8.923191 Z0 F400.000000
G01 X34.131264 Y6.964992 Z0
G01 X31.374822 Y6.964992 Z0
G00 Z5

(End cutting path id: path8528)


(Start cutting path id: path8522)
(Change tool to Default tool)

G00 Z5
G00 X35.630911 Y14.604550

G01 Z0 F100.0(Penetrate)
G01 X33.567161 Y14.587052 Z0 F400.000000
G01 X31.221189 Y16.880096 Z0
G00 Z5

(End cutting path id: path8522)


(Start cutting path id: path8520)
(Change tool to Default tool)

G00 Z5
G00 X31.009522 Y16.509539

G01 Z0 F100.0(Penetrate)
G01 X31.009522 Y10.159550 Z0 F400.000000
G00 Z5

(End cutting path id: path8520)


(Start cutting path id: path8514)
(Change tool to Default tool)

G00 Z5
G00 X31.824157 Y10.393032

G01 Z0 F100.0(Penetrate)
G01 X30.124157 Y10.393032 Z0 F400.000000
G01 X30.124157 Y8.693038 Z0
G01 X31.824157 Y8.693038 Z0
G01 X31.824157 Y10.393032 Z0
G01 X31.824157 Y10.393032 Z0
G00 Z5

(End cutting path id: path8514)


(Start cutting path id: path8514)
(Change tool to Default tool)

G00 Z5
G00 X30.727142 Y9.540044

G01 Z0 F100.0(Penetrate)
G03 X30.800363 Y9.363275 Z0 I0.249986 J0.000000 F400.000000
G03 X30.977143 Y9.290051 Z0 I0.176780 J0.176783
G03 X31.153923 Y9.363275 Z0 I-0.000000 J0.250007
G03 X31.227144 Y9.540044 Z0 I-0.176766 J0.176768
G03 X31.153914 Y9.716842 Z0 I-0.250035 J-0.000000
G03 X30.977143 Y9.790065 Z0 I-0.176770 J-0.176764
G03 X30.800373 Y9.716842 Z0 I-0.000000 J-0.249987
G03 X30.727142 Y9.540044 Z0 I0.176804 J-0.176798
G01 X30.727142 Y9.540044 Z0
G00 Z5

(End cutting path id: path8514)


(Start cutting path id: path8512)
(Change tool to Default tool)

G00 Z5
G00 X31.824163 Y17.974072

G01 Z0 F100.0(Penetrate)
G01 X30.124163 Y17.974072 Z0 F400.000000
G01 X30.124163 Y16.274072 Z0
G01 X31.824163 Y16.274072 Z0
G01 X31.824163 Y17.974072 Z0
G01 X31.824163 Y17.974072 Z0
G00 Z5

(End cutting path id: path8512)


(Start cutting path id: path8512)
(Change tool to Default tool)

G00 Z5
G00 X30.727148 Y17.121086

G01 Z0 F100.0(Penetrate)
G03 X30.800371 Y16.944309 Z0 I0.250001 J0.000000 F400.000000
G03 X30.977149 Y16.871085 Z0 I0.176777 J0.176777
G03 X31.153926 Y16.944309 Z0 I0.000000 J0.250001
G03 X31.227150 Y17.121086 Z0 I-0.176777 J0.176777
G03 X31.153926 Y17.297863 Z0 I-0.250001 J-0.000000
G03 X30.977149 Y17.371087 Z0 I-0.176777 J-0.176777
G03 X30.800371 Y17.297863 Z0 I0.000000 J-0.250001
G03 X30.727148 Y17.121086 Z0 I0.176777 J-0.176777
G01 X30.727148 Y17.121086 Z0
G00 Z5

(End cutting path id: path8512)


(Start cutting path id: path8510)
(Change tool to Default tool)

G00 Z5
G00 X36.949177 Y15.451138

G01 Z0 F100.0(Penetrate)
G01 X35.249178 Y15.451138 Z0 F400.000000
G01 X35.249178 Y13.751138 Z0
G01 X36.949177 Y13.751138 Z0
G01 X36.949177 Y15.451138 Z0
G01 X36.949177 Y15.451138 Z0
G00 Z5

(End cutting path id: path8510)


(Start cutting path id: path8510)
(Change tool to Default tool)

G00 Z5
G00 X35.852162 Y14.598143

G01 Z0 F100.0(Penetrate)
G03 X35.925383 Y14.421375 Z0 I0.249986 J0.000000 F400.000000
G03 X36.102163 Y14.348151 Z0 I0.176780 J0.176783
G03 X36.278944 Y14.421375 Z0 I0.000000 J0.250007
G03 X36.352164 Y14.598143 Z0 I-0.176766 J0.176768
G03 X36.278932 Y14.774935 Z0 I-0.250015 J0.000000
G03 X36.102163 Y14.848153 Z0 I-0.176769 J-0.176777
G03 X35.925394 Y14.774935 Z0 I-0.000000 J-0.249995
G03 X35.852162 Y14.598143 Z0 I0.176784 J-0.176791
G01 X35.852162 Y14.598143 Z0
G00 Z5

(End cutting path id: path8510)


(Start cutting path id: path8508)
(Change tool to Default tool)

G00 Z5
G00 X30.179778 Y7.012462

G01 Z0 F100.0(Penetrate)
G03 X30.428740 Y6.411420 Z0 I0.849995 J0.000000 F400.000000
G03 X31.029778 Y6.162465 Z0 I0.601038 J0.601046
G03 X31.630814 Y6.411419 Z0 I0.000000 J0.850002
G03 X31.879777 Y7.012462 Z0 I-0.601032 J0.601043
G03 X31.630814 Y7.613504 Z0 I-0.849995 J0.000000
G03 X31.029778 Y7.862458 Z0 I-0.601036 J-0.601048
G03 X30.428740 Y7.613503 Z0 I0.000000 J-0.850002
G03 X30.179778 Y7.012462 Z0 I0.601033 J-0.601041
G01 X30.179778 Y7.012462 Z0
G00 Z5

(End cutting path id: path8508)


(Start cutting path id: path8508)
(Change tool to Default tool)

G00 Z5
G00 X30.779604 Y7.015284

G01 Z0 F100.0(Penetrate)
G03 X30.852825 Y6.838514 Z0 I0.249988 J0.000000 F400.000000
G03 X31.029603 Y6.765291 Z0 I0.176777 J0.176779
G03 X31.206386 Y6.838516 Z0 I0.000000 J0.250012
G03 X31.279606 Y7.015284 Z0 I-0.176764 J0.176767
G03 X31.206386 Y7.192051 Z0 I-0.249984 J0.000000
G03 X31.029603 Y7.265276 Z0 I-0.176783 J-0.176787
G03 X30.852825 Y7.192053 Z0 I0.000000 J-0.250002
G03 X30.779604 Y7.015284 Z0 I0.176768 J-0.176769
G01 X30.779604 Y7.015284 Z0
G00 Z5

(End cutting path id: path8508)


(Start cutting path id: path8506)
(Change tool to Default tool)

G00 Z5
G00 X30.179783 Y19.654654

G01 Z0 F100.0(Penetrate)
G03 X30.428741 Y19.053615 Z0 I0.850000 J0.000000 F400.000000
G03 X31.029783 Y18.804654 Z0 I0.601042 J0.601039
G03 X31.630824 Y19.053614 Z0 I0.000000 J0.850000
G03 X31.879783 Y19.654654 Z0 I-0.601041 J0.601041
G03 X31.630822 Y20.255696 Z0 I-0.850000 J-0.000000
G03 X31.029783 Y20.504654 Z0 I-0.601039 J-0.601042
G03 X30.428743 Y20.255695 Z0 I-0.000000 J-0.850000
G03 X30.179783 Y19.654654 Z0 I0.601041 J-0.601041
G01 X30.179783 Y19.654654 Z0
G00 Z5

(End cutting path id: path8506)


(Start cutting path id: path8506)
(Change tool to Default tool)

G00 Z5
G00 X30.779610 Y19.657476

G01 Z0 F100.0(Penetrate)
G03 X30.852834 Y19.480698 Z0 I0.250003 J0.000000 F400.000000
G03 X31.029608 Y19.407475 Z0 I0.176774 J0.176774
G03 X31.206389 Y19.480700 Z0 I0.000000 J0.250006
G03 X31.279612 Y19.657476 Z0 I-0.176776 J0.176776
G03 X31.206389 Y19.834253 Z0 I-0.249999 J0.000000
G03 X31.029608 Y19.907477 Z0 I-0.176780 J-0.176781
G03 X30.852834 Y19.834255 Z0 I0.000000 J-0.249996
G03 X30.779610 Y19.657476 Z0 I0.176779 J-0.176778
G01 X30.779610 Y19.657476 Z0
G00 Z5

(End cutting path id: path8506)


(Start cutting path id: path8504)
(Change tool to Default tool)

G00 Z5
G00 X35.249178 Y11.999046

G01 Z0 F100.0(Penetrate)
G03 X35.498140 Y11.398005 Z0 I0.849995 J-0.000000 F400.000000
G03 X36.099177 Y11.149049 Z0 I0.601038 J0.601046
G03 X36.700214 Y11.398003 Z0 I0.000000 J0.850002
G03 X36.949177 Y11.999046 Z0 I-0.601032 J0.601043
G03 X36.700214 Y12.600089 Z0 I-0.849995 J-0.000000
G03 X36.099177 Y12.849043 Z0 I-0.601036 J-0.601048
G03 X35.498140 Y12.600087 Z0 I-0.000000 J-0.850002
G03 X35.249178 Y11.999046 Z0 I0.601033 J-0.601041
G01 X35.249178 Y11.999046 Z0
G00 Z5

(End cutting path id: path8504)


(Start cutting path id: path8504)
(Change tool to Default tool)

G00 Z5
G00 X35.849004 Y12.001868

G01 Z0 F100.0(Penetrate)
G03 X35.922225 Y11.825099 Z0 I0.249988 J-0.000000 F400.000000
G03 X36.099002 Y11.751876 Z0 I0.176777 J0.176779
G03 X36.275786 Y11.825101 Z0 I0.000000 J0.250012
G03 X36.349006 Y12.001868 Z0 I-0.176764 J0.176767
G03 X36.275786 Y12.178636 Z0 I-0.249984 J0.000000
G03 X36.099002 Y12.251861 Z0 I-0.176783 J-0.176787
G03 X35.922225 Y12.178638 Z0 I0.000000 J-0.250002
G03 X35.849004 Y12.001868 Z0 I0.176768 J-0.176769
G01 X35.849004 Y12.001868 Z0
G00 Z5

(End cutting path id: path8504)


(Start cutting path id: path8502)
(Change tool to Default tool)

G00 Z5
G00 X35.249178 Y17.203368

G01 Z0 F100.0(Penetrate)
G03 X35.498135 Y16.602329 Z0 I0.850000 J0.000000 F400.000000
G03 X36.099177 Y16.353368 Z0 I0.601042 J0.601039
G03 X36.700218 Y16.602327 Z0 I-0.000000 J0.850000
G03 X36.949177 Y17.203368 Z0 I-0.601041 J0.601041
G03 X36.700217 Y17.804410 Z0 I-0.850000 J0.000000
G03 X36.099177 Y18.053368 Z0 I-0.601039 J-0.601042
G03 X35.498137 Y17.804408 Z0 I0.000000 J-0.850000
G03 X35.249178 Y17.203368 Z0 I0.601041 J-0.601041
G01 X35.249178 Y17.203368 Z0
G00 Z5

(End cutting path id: path8502)


(Start cutting path id: path8502)
(Change tool to Default tool)

G00 Z5
G00 X35.849004 Y17.206190

G01 Z0 F100.0(Penetrate)
G03 X35.922228 Y17.029412 Z0 I0.250003 J0.000000 F400.000000
G03 X36.099002 Y16.956189 Z0 I0.176774 J0.176774
G03 X36.275783 Y17.029414 Z0 I0.000000 J0.250006
G03 X36.349006 Y17.206190 Z0 I-0.176776 J0.176776
G03 X36.275783 Y17.382966 Z0 I-0.249999 J0.000000
G03 X36.099002 Y17.456191 Z0 I-0.176780 J-0.176781
G03 X35.922228 Y17.382968 Z0 I-0.000000 J-0.249996
G03 X35.849004 Y17.206190 Z0 I0.176779 J-0.176778
G01 X35.849004 Y17.206190 Z0
G00 Z5

(End cutting path id: path8502)


(Start cutting path id: path8498)
(Change tool to Default tool)

G00 Z5
G00 X30.720276 Y34.924790

G01 Z0 F100.0(Penetrate)
G03 X30.805121 Y34.719953 Z0 I0.289684 J0.000000 F400.000000
G03 X31.009960 Y34.635106 Z0 I0.204839 J0.204836
G03 X31.214799 Y34.719953 Z0 I0.000000 J0.289684
G03 X31.299644 Y34.924790 Z0 I-0.204839 J0.204836
G03 X31.214798 Y35.129629 Z0 I-0.289689 J0.000000
G03 X31.009960 Y35.214477 Z0 I-0.204838 J-0.204835
G03 X30.805122 Y35.129629 Z0 I0.000000 J-0.289682
G03 X30.720276 Y34.924790 Z0 I0.204843 J-0.204839
G01 X30.720276 Y34.924790 Z0
G00 Z5

(End cutting path id: path8498)


(Start cutting path id: path8498)
(Change tool to Default tool)

G00 Z5
G00 X31.626079 Y35.716530

G01 Z0 F100.0(Penetrate)
G01 X30.540991 Y35.716530 Z0 F400.000000
G03 X29.945673 Y35.469942 Z0 I-0.000000 J-0.841909
G03 X29.699088 Y34.874636 Z0 I0.595304 J-0.595306
G03 X29.945676 Y34.279321 Z0 I0.841903 J0.000000
G03 X30.540991 Y34.032733 Z0 I0.595315 J0.595315
G01 X31.626079 Y34.032733 Z0
G03 X32.221394 Y34.279321 Z0 I0.000000 J0.841903
G03 X32.467982 Y34.874636 Z0 I-0.595315 J0.595315
G03 X32.221397 Y35.469942 Z0 I-0.841888 J-0.000000
G03 X31.626079 Y35.716530 Z0 I-0.595318 J-0.595321
G01 X31.626079 Y35.716530 Z0
G00 Z5

(End cutting path id: path8498)


(Start cutting path id: path8496)
(Change tool to Default tool)

G00 Z5
G00 X23.100277 Y37.464790

G01 Z0 F100.0(Penetrate)
G03 X23.185122 Y37.259954 Z0 I0.289684 J0.000000 F400.000000
G03 X23.389961 Y37.175106 Z0 I0.204839 J0.204836
G03 X23.594800 Y37.259954 Z0 I0.000000 J0.289684
G03 X23.679645 Y37.464790 Z0 I-0.204839 J0.204836
G03 X23.594799 Y37.669629 Z0 I-0.289689 J-0.000000
G03 X23.389961 Y37.754477 Z0 I-0.204838 J-0.204835
G03 X23.185123 Y37.669629 Z0 I0.000000 J-0.289682
G03 X23.100277 Y37.464790 Z0 I0.204843 J-0.204839
G01 X23.100277 Y37.464790 Z0
G00 Z5

(End cutting path id: path8496)


(Start cutting path id: path8496)
(Change tool to Default tool)

G00 Z5
G00 X24.006080 Y38.256530

G01 Z0 F100.0(Penetrate)
G01 X22.920992 Y38.256530 Z0 F400.000000
G03 X22.325674 Y38.009942 Z0 I-0.000000 J-0.841909
G03 X22.079089 Y37.414636 Z0 I0.595304 J-0.595306
G03 X22.325677 Y36.819321 Z0 I0.841903 J0.000000
G03 X22.920992 Y36.572733 Z0 I0.595315 J0.595315
G01 X24.006080 Y36.572733 Z0
G03 X24.601395 Y36.819321 Z0 I-0.000000 J0.841903
G03 X24.847983 Y37.414636 Z0 I-0.595315 J0.595315
G03 X24.601398 Y38.009942 Z0 I-0.841888 J-0.000000
G03 X24.006080 Y38.256530 Z0 I-0.595318 J-0.595321
G01 X24.006080 Y38.256530 Z0
G00 Z5

(End cutting path id: path8496)


(Start cutting path id: path8490)
(Change tool to Default tool)

G00 Z5
G00 X30.720276 Y37.464790

G01 Z0 F100.0(Penetrate)
G03 X30.805121 Y37.259954 Z0 I0.289684 J0.000000 F400.000000
G03 X31.009960 Y37.175106 Z0 I0.204839 J0.204836
G03 X31.214799 Y37.259954 Z0 I0.000000 J0.289684
G03 X31.299644 Y37.464790 Z0 I-0.204839 J0.204836
G03 X31.214798 Y37.669629 Z0 I-0.289689 J-0.000000
G03 X31.009960 Y37.754477 Z0 I-0.204838 J-0.204835
G03 X30.805122 Y37.669629 Z0 I0.000000 J-0.289682
G03 X30.720276 Y37.464790 Z0 I0.204843 J-0.204839
G01 X30.720276 Y37.464790 Z0
G00 Z5

(End cutting path id: path8490)


(Start cutting path id: path8490)
(Change tool to Default tool)

G00 Z5
G00 X31.626079 Y38.256530

G01 Z0 F100.0(Penetrate)
G01 X30.540991 Y38.256530 Z0 F400.000000
G03 X29.945673 Y38.009942 Z0 I-0.000000 J-0.841909
G03 X29.699088 Y37.414636 Z0 I0.595304 J-0.595306
G03 X29.945676 Y36.819321 Z0 I0.841903 J0.000000
G03 X30.540991 Y36.572733 Z0 I0.595315 J0.595315
G01 X31.626079 Y36.572733 Z0
G03 X32.221394 Y36.819321 Z0 I-0.000000 J0.841903
G03 X32.467982 Y37.414636 Z0 I-0.595315 J0.595315
G03 X32.221397 Y38.009942 Z0 I-0.841888 J-0.000000
G03 X31.626079 Y38.256530 Z0 I-0.595318 J-0.595321
G01 X31.626079 Y38.256530 Z0
G00 Z5

(End cutting path id: path8490)


(Start cutting path id: path8488)
(Change tool to Default tool)

G00 Z5
G00 X30.720276 Y40.004790

G01 Z0 F100.0(Penetrate)
G03 X30.805121 Y39.799954 Z0 I0.289684 J0.000000 F400.000000
G03 X31.009960 Y39.715106 Z0 I0.204839 J0.204836
G03 X31.214799 Y39.799954 Z0 I-0.000000 J0.289684
G03 X31.299644 Y40.004790 Z0 I-0.204839 J0.204836
G03 X31.214798 Y40.209629 Z0 I-0.289689 J0.000000
G03 X31.009960 Y40.294477 Z0 I-0.204838 J-0.204835
G03 X30.805122 Y40.209629 Z0 I0.000000 J-0.289682
G03 X30.720276 Y40.004790 Z0 I0.204843 J-0.204839
G01 X30.720276 Y40.004790 Z0
G00 Z5

(End cutting path id: path8488)


(Start cutting path id: path8488)
(Change tool to Default tool)

G00 Z5
G00 X31.626079 Y40.796530

G01 Z0 F100.0(Penetrate)
G01 X30.540991 Y40.796530 Z0 F400.000000
G03 X29.945673 Y40.549942 Z0 I-0.000000 J-0.841909
G03 X29.699088 Y39.954636 Z0 I0.595304 J-0.595306
G03 X29.945676 Y39.359321 Z0 I0.841903 J0.000000
G03 X30.540991 Y39.112733 Z0 I0.595315 J0.595315
G01 X31.626079 Y39.112733 Z0
G03 X32.221394 Y39.359321 Z0 I-0.000000 J0.841903
G03 X32.467982 Y39.954636 Z0 I-0.595315 J0.595315
G03 X32.221397 Y40.549942 Z0 I-0.841888 J-0.000000
G03 X31.626079 Y40.796530 Z0 I-0.595318 J-0.595321
G01 X31.626079 Y40.796530 Z0
G00 Z5

(End cutting path id: path8488)


(Start cutting path id: path8484)
(Change tool to Default tool)

G00 Z5
G00 X23.882608 Y25.556530

G01 Z0 F100.0(Penetrate)
G01 X20.380992 Y25.556530 Z0 F400.000000
G03 X19.785674 Y25.309942 Z0 I-0.000000 J-0.841909
G03 X19.539089 Y24.714636 Z0 I0.595304 J-0.595306
G03 X19.785677 Y24.119321 Z0 I0.841903 J-0.000000
G03 X20.380992 Y23.872733 Z0 I0.595315 J0.595315
G01 X23.882608 Y23.872733 Z0
G03 X24.477923 Y24.119321 Z0 I0.000000 J0.841903
G03 X24.724511 Y24.714636 Z0 I-0.595315 J0.595315
G03 X24.477926 Y25.309942 Z0 I-0.841888 J-0.000000
G03 X23.882608 Y25.556530 Z0 I-0.595318 J-0.595321
G01 X23.882608 Y25.556530 Z0
G00 Z5

(End cutting path id: path8484)


(Start cutting path id: path8484)
(Change tool to Default tool)

G00 Z5
G00 X20.560276 Y24.764790

G01 Z0 F100.0(Penetrate)
G03 X20.645122 Y24.559953 Z0 I0.289684 J0.000000 F400.000000
G03 X20.849961 Y24.475106 Z0 I0.204839 J0.204836
G03 X21.054800 Y24.559953 Z0 I0.000000 J0.289684
G03 X21.139645 Y24.764790 Z0 I-0.204839 J0.204836
G03 X21.054799 Y24.969629 Z0 I-0.289689 J0.000000
G03 X20.849961 Y25.054477 Z0 I-0.204838 J-0.204835
G03 X20.645123 Y24.969629 Z0 I-0.000000 J-0.289682
G03 X20.560276 Y24.764790 Z0 I0.204843 J-0.204839
G01 X20.560276 Y24.764790 Z0
G00 Z5

(End cutting path id: path8484)


(Start cutting path id: path8484)
(Change tool to Default tool)

G00 Z5
G00 X23.100293 Y24.764790

G01 Z0 F100.0(Penetrate)
G03 X23.185138 Y24.559954 Z0 I0.289686 J-0.000000 F400.000000
G03 X23.389975 Y24.475106 Z0 I0.204837 J0.204831
G03 X23.594815 Y24.559955 Z0 I-0.000000 J0.289684
G03 X23.679659 Y24.764790 Z0 I-0.204840 J0.204835
G03 X23.594814 Y24.969628 Z0 I-0.289689 J0.000000
G03 X23.389975 Y25.054477 Z0 I-0.204839 J-0.204833
G03 X23.185139 Y24.969629 Z0 I0.000000 J-0.289677
G03 X23.100293 Y24.764790 Z0 I0.204846 J-0.204839
G01 X23.100293 Y24.764790 Z0
G00 Z5

(End cutting path id: path8484)


(Start cutting path id: path8482)
(Change tool to Default tool)

G00 Z5
G00 X23.882608 Y28.096530

G01 Z0 F100.0(Penetrate)
G01 X20.380992 Y28.096530 Z0 F400.000000
G03 X19.785674 Y27.849942 Z0 I-0.000000 J-0.841909
G03 X19.539089 Y27.254636 Z0 I0.595304 J-0.595306
G03 X19.785677 Y26.659321 Z0 I0.841903 J0.000000
G03 X20.380992 Y26.412733 Z0 I0.595315 J0.595315
G01 X23.882608 Y26.412733 Z0
G03 X24.477923 Y26.659321 Z0 I-0.000000 J0.841903
G03 X24.724511 Y27.254636 Z0 I-0.595315 J0.595315
G03 X24.477926 Y27.849942 Z0 I-0.841888 J-0.000000
G03 X23.882608 Y28.096530 Z0 I-0.595318 J-0.595321
G01 X23.882608 Y28.096530 Z0
G00 Z5

(End cutting path id: path8482)


(Start cutting path id: path8482)
(Change tool to Default tool)

G00 Z5
G00 X20.560276 Y27.304790

G01 Z0 F100.0(Penetrate)
G03 X20.645122 Y27.099953 Z0 I0.289684 J-0.000000 F400.000000
G03 X20.849961 Y27.015106 Z0 I0.204839 J0.204836
G03 X21.054800 Y27.099953 Z0 I0.000000 J0.289684
G03 X21.139645 Y27.304790 Z0 I-0.204839 J0.204836
G03 X21.054799 Y27.509629 Z0 I-0.289689 J-0.000000
G03 X20.849961 Y27.594477 Z0 I-0.204838 J-0.204835
G03 X20.645123 Y27.509629 Z0 I0.000000 J-0.289682
G03 X20.560276 Y27.304790 Z0 I0.204843 J-0.204839
G01 X20.560276 Y27.304790 Z0
G00 Z5

(End cutting path id: path8482)


(Start cutting path id: path8482)
(Change tool to Default tool)

G00 Z5
G00 X23.100293 Y27.304790

G01 Z0 F100.0(Penetrate)
G03 X23.185138 Y27.099954 Z0 I0.289686 J0.000000 F400.000000
G03 X23.389975 Y27.015106 Z0 I0.204837 J0.204831
G03 X23.594815 Y27.099955 Z0 I0.000000 J0.289684
G03 X23.679659 Y27.304790 Z0 I-0.204840 J0.204835
G03 X23.594814 Y27.509628 Z0 I-0.289689 J0.000000
G03 X23.389975 Y27.594477 Z0 I-0.204839 J-0.204833
G03 X23.185139 Y27.509629 Z0 I0.000000 J-0.289677
G03 X23.100293 Y27.304790 Z0 I0.204846 J-0.204839
G01 X23.100293 Y27.304790 Z0
G00 Z5

(End cutting path id: path8482)


(Start cutting path id: path8480)
(Change tool to Default tool)

G00 Z5
G00 X23.882608 Y30.636530

G01 Z0 F100.0(Penetrate)
G01 X20.380992 Y30.636530 Z0 F400.000000
G03 X19.785674 Y30.389942 Z0 I-0.000000 J-0.841909
G03 X19.539089 Y29.794636 Z0 I0.595304 J-0.595306
G03 X19.785677 Y29.199321 Z0 I0.841903 J0.000000
G03 X20.380992 Y28.952733 Z0 I0.595315 J0.595315
G01 X23.882608 Y28.952733 Z0
G03 X24.477923 Y29.199321 Z0 I-0.000000 J0.841903
G03 X24.724511 Y29.794636 Z0 I-0.595315 J0.595315
G03 X24.477926 Y30.389942 Z0 I-0.841888 J-0.000000
G03 X23.882608 Y30.636530 Z0 I-0.595318 J-0.595321
G01 X23.882608 Y30.636530 Z0
G00 Z5

(End cutting path id: path8480)


(Start cutting path id: path8480)
(Change tool to Default tool)

G00 Z5
G00 X20.560276 Y29.844790

G01 Z0 F100.0(Penetrate)
G03 X20.645122 Y29.639953 Z0 I0.289684 J0.000000 F400.000000
G03 X20.849961 Y29.555106 Z0 I0.204839 J0.204836
G03 X21.054800 Y29.639953 Z0 I-0.000000 J0.289684
G03 X21.139645 Y29.844790 Z0 I-0.204839 J0.204836
G03 X21.054799 Y30.049629 Z0 I-0.289689 J0.000000
G03 X20.849961 Y30.134477 Z0 I-0.204838 J-0.204835
G03 X20.645123 Y30.049629 Z0 I0.000000 J-0.289682
G03 X20.560276 Y29.844790 Z0 I0.204843 J-0.204839
G01 X20.560276 Y29.844790 Z0
G00 Z5

(End cutting path id: path8480)


(Start cutting path id: path8480)
(Change tool to Default tool)

G00 Z5
G00 X23.100293 Y29.844790

G01 Z0 F100.0(Penetrate)
G03 X23.185138 Y29.639954 Z0 I0.289686 J0.000000 F400.000000
G03 X23.389975 Y29.555106 Z0 I0.204837 J0.204831
G03 X23.594815 Y29.639955 Z0 I0.000000 J0.289684
G03 X23.679659 Y29.844790 Z0 I-0.204840 J0.204835
G03 X23.594814 Y30.049628 Z0 I-0.289689 J-0.000000
G03 X23.389975 Y30.134477 Z0 I-0.204839 J-0.204833
G03 X23.185139 Y30.049629 Z0 I0.000000 J-0.289677
G03 X23.100293 Y29.844790 Z0 I0.204846 J-0.204839
G01 X23.100293 Y29.844790 Z0
G00 Z5

(End cutting path id: path8480)


(Start cutting path id: path8478)
(Change tool to Default tool)

G00 Z5
G00 X23.882608 Y33.176530

G01 Z0 F100.0(Penetrate)
G01 X20.380992 Y33.176530 Z0 F400.000000
G03 X19.785674 Y32.929942 Z0 I-0.000000 J-0.841909
G03 X19.539089 Y32.334636 Z0 I0.595304 J-0.595306
G03 X19.785677 Y31.739321 Z0 I0.841903 J0.000000
G03 X20.380992 Y31.492733 Z0 I0.595315 J0.595315
G01 X23.882608 Y31.492733 Z0
G03 X24.477923 Y31.739321 Z0 I-0.000000 J0.841903
G03 X24.724511 Y32.334636 Z0 I-0.595315 J0.595315
G03 X24.477926 Y32.929942 Z0 I-0.841888 J-0.000000
G03 X23.882608 Y33.176530 Z0 I-0.595318 J-0.595321
G01 X23.882608 Y33.176530 Z0
G00 Z5

(End cutting path id: path8478)


(Start cutting path id: path8478)
(Change tool to Default tool)

G00 Z5
G00 X20.560276 Y32.384790

G01 Z0 F100.0(Penetrate)
G03 X20.645122 Y32.179953 Z0 I0.289684 J0.000000 F400.000000
G03 X20.849961 Y32.095106 Z0 I0.204839 J0.204836
G03 X21.054800 Y32.179953 Z0 I-0.000000 J0.289684
G03 X21.139645 Y32.384790 Z0 I-0.204839 J0.204836
G03 X21.054799 Y32.589629 Z0 I-0.289689 J0.000000
G03 X20.849961 Y32.674477 Z0 I-0.204838 J-0.204835
G03 X20.645123 Y32.589629 Z0 I-0.000000 J-0.289682
G03 X20.560276 Y32.384790 Z0 I0.204843 J-0.204839
G01 X20.560276 Y32.384790 Z0
G00 Z5

(End cutting path id: path8478)


(Start cutting path id: path8478)
(Change tool to Default tool)

G00 Z5
G00 X23.100293 Y32.384790

G01 Z0 F100.0(Penetrate)
G03 X23.185138 Y32.179954 Z0 I0.289686 J0.000000 F400.000000
G03 X23.389975 Y32.095106 Z0 I0.204837 J0.204831
G03 X23.594815 Y32.179955 Z0 I0.000000 J0.289684
G03 X23.679659 Y32.384790 Z0 I-0.204840 J0.204835
G03 X23.594814 Y32.589628 Z0 I-0.289689 J-0.000000
G03 X23.389975 Y32.674477 Z0 I-0.204839 J-0.204833
G03 X23.185139 Y32.589629 Z0 I-0.000000 J-0.289677
G03 X23.100293 Y32.384790 Z0 I0.204846 J-0.204839
G01 X23.100293 Y32.384790 Z0
G00 Z5

(End cutting path id: path8478)


(Start cutting path id: path8476)
(Change tool to Default tool)

G00 Z5
G00 X23.882608 Y35.716530

G01 Z0 F100.0(Penetrate)
G01 X20.380992 Y35.716530 Z0 F400.000000
G03 X19.785674 Y35.469942 Z0 I-0.000000 J-0.841909
G03 X19.539089 Y34.874636 Z0 I0.595304 J-0.595306
G03 X19.785677 Y34.279321 Z0 I0.841903 J0.000000
G03 X20.380992 Y34.032733 Z0 I0.595315 J0.595315
G01 X23.882608 Y34.032733 Z0
G03 X24.477923 Y34.279321 Z0 I-0.000000 J0.841903
G03 X24.724511 Y34.874636 Z0 I-0.595315 J0.595315
G03 X24.477926 Y35.469942 Z0 I-0.841888 J-0.000000
G03 X23.882608 Y35.716530 Z0 I-0.595318 J-0.595321
G01 X23.882608 Y35.716530 Z0
G00 Z5

(End cutting path id: path8476)


(Start cutting path id: path8476)
(Change tool to Default tool)

G00 Z5
G00 X20.560276 Y34.924790

G01 Z0 F100.0(Penetrate)
G03 X20.645122 Y34.719953 Z0 I0.289684 J0.000000 F400.000000
G03 X20.849961 Y34.635106 Z0 I0.204839 J0.204836
G03 X21.054800 Y34.719953 Z0 I0.000000 J0.289684
G03 X21.139645 Y34.924790 Z0 I-0.204839 J0.204836
G03 X21.054799 Y35.129629 Z0 I-0.289689 J0.000000
G03 X20.849961 Y35.214477 Z0 I-0.204838 J-0.204835
G03 X20.645123 Y35.129629 Z0 I0.000000 J-0.289682
G03 X20.560276 Y34.924790 Z0 I0.204843 J-0.204839
G01 X20.560276 Y34.924790 Z0
G00 Z5

(End cutting path id: path8476)


(Start cutting path id: path8476)
(Change tool to Default tool)

G00 Z5
G00 X23.100293 Y34.924790

G01 Z0 F100.0(Penetrate)
G03 X23.185138 Y34.719954 Z0 I0.289686 J-0.000000 F400.000000
G03 X23.389975 Y34.635106 Z0 I0.204837 J0.204831
G03 X23.594815 Y34.719955 Z0 I-0.000000 J0.289684
G03 X23.679659 Y34.924790 Z0 I-0.204840 J0.204835
G03 X23.594814 Y35.129628 Z0 I-0.289689 J0.000000
G03 X23.389975 Y35.214477 Z0 I-0.204839 J-0.204833
G03 X23.185139 Y35.129629 Z0 I-0.000000 J-0.289677
G03 X23.100293 Y34.924790 Z0 I0.204846 J-0.204839
G01 X23.100293 Y34.924790 Z0
G00 Z5

(End cutting path id: path8476)


(Start cutting path id: path8474)
(Change tool to Default tool)

G00 Z5
G00 X23.882608 Y45.876531

G01 Z0 F100.0(Penetrate)
G01 X20.380992 Y45.876531 Z0 F400.000000
G03 X19.785674 Y45.629942 Z0 I-0.000000 J-0.841909
G03 X19.539089 Y45.034636 Z0 I0.595304 J-0.595306
G03 X19.785677 Y44.439321 Z0 I0.841903 J0.000000
G03 X20.380992 Y44.192733 Z0 I0.595315 J0.595315
G01 X23.882608 Y44.192733 Z0
G03 X24.477923 Y44.439321 Z0 I-0.000000 J0.841903
G03 X24.724511 Y45.034636 Z0 I-0.595315 J0.595315
G03 X24.477926 Y45.629942 Z0 I-0.841888 J0.000000
G03 X23.882608 Y45.876531 Z0 I-0.595318 J-0.595321
G01 X23.882608 Y45.876531 Z0
G00 Z5

(End cutting path id: path8474)


(Start cutting path id: path8474)
(Change tool to Default tool)

G00 Z5
G00 X20.560276 Y45.084790

G01 Z0 F100.0(Penetrate)
G03 X20.645122 Y44.879954 Z0 I0.289684 J0.000000 F400.000000
G03 X20.849961 Y44.795106 Z0 I0.204839 J0.204836
G03 X21.054800 Y44.879954 Z0 I0.000000 J0.289684
G03 X21.139645 Y45.084790 Z0 I-0.204839 J0.204836
G03 X21.054799 Y45.289629 Z0 I-0.289689 J0.000000
G03 X20.849961 Y45.374477 Z0 I-0.204838 J-0.204835
G03 X20.645123 Y45.289629 Z0 I-0.000000 J-0.289682
G03 X20.560276 Y45.084790 Z0 I0.204843 J-0.204839
G01 X20.560276 Y45.084790 Z0
G00 Z5

(End cutting path id: path8474)


(Start cutting path id: path8474)
(Change tool to Default tool)

G00 Z5
G00 X23.100293 Y45.084790

G01 Z0 F100.0(Penetrate)
G03 X23.185138 Y44.879954 Z0 I0.289686 J0.000000 F400.000000
G03 X23.389975 Y44.795106 Z0 I0.204837 J0.204831
G03 X23.594815 Y44.879955 Z0 I0.000000 J0.289684
G03 X23.679659 Y45.084790 Z0 I-0.204840 J0.204835
G03 X23.594814 Y45.289628 Z0 I-0.289689 J0.000000
G03 X23.389975 Y45.374477 Z0 I-0.204839 J-0.204833
G03 X23.185139 Y45.289629 Z0 I0.000000 J-0.289677
G03 X23.100293 Y45.084790 Z0 I0.204846 J-0.204839
G01 X23.100293 Y45.084790 Z0
G00 Z5

(End cutting path id: path8474)


(Start cutting path id: path8472)
(Change tool to Default tool)

G00 Z5
G00 X23.882608 Y48.416531

G01 Z0 F100.0(Penetrate)
G01 X20.380992 Y48.416531 Z0 F400.000000
G03 X19.785674 Y48.169942 Z0 I-0.000000 J-0.841909
G03 X19.539089 Y47.574636 Z0 I0.595304 J-0.595306
G03 X19.785677 Y46.979321 Z0 I0.841903 J0.000000
G03 X20.380992 Y46.732733 Z0 I0.595315 J0.595315
G01 X23.882608 Y46.732733 Z0
G03 X24.477923 Y46.979321 Z0 I0.000000 J0.841903
G03 X24.724511 Y47.574636 Z0 I-0.595315 J0.595315
G03 X24.477926 Y48.169942 Z0 I-0.841888 J-0.000000
G03 X23.882608 Y48.416531 Z0 I-0.595318 J-0.595321
G01 X23.882608 Y48.416531 Z0
G00 Z5

(End cutting path id: path8472)


(Start cutting path id: path8472)
(Change tool to Default tool)

G00 Z5
G00 X20.560276 Y47.624790

G01 Z0 F100.0(Penetrate)
G03 X20.645122 Y47.419954 Z0 I0.289684 J0.000000 F400.000000
G03 X20.849961 Y47.335106 Z0 I0.204839 J0.204836
G03 X21.054800 Y47.419954 Z0 I0.000000 J0.289684
G03 X21.139645 Y47.624790 Z0 I-0.204839 J0.204836
G03 X21.054799 Y47.829629 Z0 I-0.289689 J0.000000
G03 X20.849961 Y47.914477 Z0 I-0.204838 J-0.204835
G03 X20.645123 Y47.829629 Z0 I-0.000000 J-0.289682
G03 X20.560276 Y47.624790 Z0 I0.204843 J-0.204839
G01 X20.560276 Y47.624790 Z0
G00 Z5

(End cutting path id: path8472)


(Start cutting path id: path8472)
(Change tool to Default tool)

G00 Z5
G00 X23.100293 Y47.624790

G01 Z0 F100.0(Penetrate)
G03 X23.185138 Y47.419954 Z0 I0.289686 J0.000000 F400.000000
G03 X23.389975 Y47.335106 Z0 I0.204837 J0.204831
G03 X23.594815 Y47.419955 Z0 I0.000000 J0.289684
G03 X23.679659 Y47.624790 Z0 I-0.204840 J0.204835
G03 X23.594814 Y47.829628 Z0 I-0.289689 J0.000000
G03 X23.389975 Y47.914477 Z0 I-0.204839 J-0.204833
G03 X23.185139 Y47.829629 Z0 I0.000000 J-0.289677
G03 X23.100293 Y47.624790 Z0 I0.204846 J-0.204839
G01 X23.100293 Y47.624790 Z0
G00 Z5

(End cutting path id: path8472)


(Start cutting path id: path8470)
(Change tool to Default tool)

G00 Z5
G00 X23.882608 Y50.956531

G01 Z0 F100.0(Penetrate)
G01 X20.380992 Y50.956531 Z0 F400.000000
G03 X19.785674 Y50.709942 Z0 I-0.000000 J-0.841909
G03 X19.539089 Y50.114636 Z0 I0.595304 J-0.595306
G03 X19.785677 Y49.519321 Z0 I0.841903 J0.000000
G03 X20.380992 Y49.272733 Z0 I0.595315 J0.595315
G01 X23.882608 Y49.272733 Z0
G03 X24.477923 Y49.519321 Z0 I0.000000 J0.841903
G03 X24.724511 Y50.114636 Z0 I-0.595315 J0.595315
G03 X24.477926 Y50.709942 Z0 I-0.841888 J-0.000000
G03 X23.882608 Y50.956531 Z0 I-0.595318 J-0.595321
G01 X23.882608 Y50.956531 Z0
G00 Z5

(End cutting path id: path8470)


(Start cutting path id: path8470)
(Change tool to Default tool)

G00 Z5
G00 X20.560276 Y50.164790

G01 Z0 F100.0(Penetrate)
G03 X20.645122 Y49.959954 Z0 I0.289684 J0.000000 F400.000000
G03 X20.849961 Y49.875106 Z0 I0.204839 J0.204836
G03 X21.054800 Y49.959954 Z0 I0.000000 J0.289684
G03 X21.139645 Y50.164790 Z0 I-0.204839 J0.204836
G03 X21.054799 Y50.369629 Z0 I-0.289689 J0.000000
G03 X20.849961 Y50.454477 Z0 I-0.204838 J-0.204835
G03 X20.645123 Y50.369629 Z0 I-0.000000 J-0.289682
G03 X20.560276 Y50.164790 Z0 I0.204843 J-0.204839
G01 X20.560276 Y50.164790 Z0
G00 Z5

(End cutting path id: path8470)


(Start cutting path id: path8470)
(Change tool to Default tool)

G00 Z5
G00 X23.100293 Y50.164790

G01 Z0 F100.0(Penetrate)
G03 X23.185138 Y49.959954 Z0 I0.289686 J0.000000 F400.000000
G03 X23.389975 Y49.875106 Z0 I0.204837 J0.204831
G03 X23.594815 Y49.959955 Z0 I0.000000 J0.289684
G03 X23.679659 Y50.164790 Z0 I-0.204840 J0.204835
G03 X23.594814 Y50.369628 Z0 I-0.289689 J0.000000
G03 X23.389975 Y50.454477 Z0 I-0.204839 J-0.204833
G03 X23.185139 Y50.369629 Z0 I0.000000 J-0.289677
G03 X23.100293 Y50.164790 Z0 I0.204846 J-0.204839
G01 X23.100293 Y50.164790 Z0
G00 Z5

(End cutting path id: path8470)


(Start cutting path id: path8468)
(Change tool to Default tool)

G00 Z5
G00 X23.882608 Y53.496531

G01 Z0 F100.0(Penetrate)
G01 X20.380992 Y53.496531 Z0 F400.000000
G03 X19.785674 Y53.249942 Z0 I-0.000000 J-0.841909
G03 X19.539089 Y52.654636 Z0 I0.595304 J-0.595306
G03 X19.785677 Y52.059321 Z0 I0.841903 J-0.000000
G03 X20.380992 Y51.812734 Z0 I0.595315 J0.595315
G01 X23.882608 Y51.812734 Z0
G03 X24.477923 Y52.059321 Z0 I0.000000 J0.841903
G03 X24.724511 Y52.654636 Z0 I-0.595315 J0.595315
G03 X24.477926 Y53.249942 Z0 I-0.841888 J-0.000000
G03 X23.882608 Y53.496531 Z0 I-0.595318 J-0.595321
G01 X23.882608 Y53.496531 Z0
G00 Z5

(End cutting path id: path8468)


(Start cutting path id: path8468)
(Change tool to Default tool)

G00 Z5
G00 X20.560276 Y52.704790

G01 Z0 F100.0(Penetrate)
G03 X20.645122 Y52.499954 Z0 I0.289684 J0.000000 F400.000000
G03 X20.849961 Y52.415106 Z0 I0.204839 J0.204836
G03 X21.054800 Y52.499954 Z0 I0.000000 J0.289684
G03 X21.139645 Y52.704790 Z0 I-0.204839 J0.204836
G03 X21.054799 Y52.909629 Z0 I-0.289689 J0.000000
G03 X20.849961 Y52.994477 Z0 I-0.204838 J-0.204835
G03 X20.645123 Y52.909629 Z0 I-0.000000 J-0.289682
G03 X20.560276 Y52.704790 Z0 I0.204843 J-0.204839
G01 X20.560276 Y52.704790 Z0
G00 Z5

(End cutting path id: path8468)


(Start cutting path id: path8468)
(Change tool to Default tool)

G00 Z5
G00 X23.100293 Y52.704790

G01 Z0 F100.0(Penetrate)
G03 X23.185138 Y52.499954 Z0 I0.289686 J-0.000000 F400.000000
G03 X23.389975 Y52.415106 Z0 I0.204837 J0.204831
G03 X23.594815 Y52.499955 Z0 I-0.000000 J0.289684
G03 X23.679659 Y52.704790 Z0 I-0.204840 J0.204835
G03 X23.594814 Y52.909628 Z0 I-0.289689 J0.000000
G03 X23.389975 Y52.994477 Z0 I-0.204839 J-0.204833
G03 X23.185139 Y52.909629 Z0 I-0.000000 J-0.289677
G03 X23.100293 Y52.704790 Z0 I0.204846 J-0.204839
G01 X23.100293 Y52.704790 Z0
G00 Z5

(End cutting path id: path8468)


(Start cutting path id: path8466)
(Change tool to Default tool)

G00 Z5
G00 X23.882608 Y56.036531

G01 Z0 F100.0(Penetrate)
G01 X20.380992 Y56.036531 Z0 F400.000000
G03 X19.785674 Y55.789942 Z0 I-0.000000 J-0.841909
G03 X19.539089 Y55.194636 Z0 I0.595304 J-0.595306
G03 X19.785677 Y54.599321 Z0 I0.841903 J0.000000
G03 X20.380992 Y54.352734 Z0 I0.595315 J0.595315
G01 X23.882608 Y54.352734 Z0
G03 X24.477923 Y54.599321 Z0 I-0.000000 J0.841903
G03 X24.724511 Y55.194636 Z0 I-0.595315 J0.595315
G03 X24.477926 Y55.789942 Z0 I-0.841888 J-0.000000
G03 X23.882608 Y56.036531 Z0 I-0.595318 J-0.595321
G01 X23.882608 Y56.036531 Z0
G00 Z5

(End cutting path id: path8466)


(Start cutting path id: path8466)
(Change tool to Default tool)

G00 Z5
G00 X20.560276 Y55.244790

G01 Z0 F100.0(Penetrate)
G03 X20.645122 Y55.039954 Z0 I0.289684 J-0.000000 F400.000000
G03 X20.849961 Y54.955106 Z0 I0.204839 J0.204836
G03 X21.054800 Y55.039954 Z0 I-0.000000 J0.289684
G03 X21.139645 Y55.244790 Z0 I-0.204839 J0.204836
G03 X21.054799 Y55.449629 Z0 I-0.289689 J0.000000
G03 X20.849961 Y55.534477 Z0 I-0.204838 J-0.204835
G03 X20.645123 Y55.449629 Z0 I0.000000 J-0.289682
G03 X20.560276 Y55.244790 Z0 I0.204843 J-0.204839
G01 X20.560276 Y55.244790 Z0
G00 Z5

(End cutting path id: path8466)


(Start cutting path id: path8466)
(Change tool to Default tool)

G00 Z5
G00 X23.100293 Y55.244790

G01 Z0 F100.0(Penetrate)
G03 X23.185138 Y55.039954 Z0 I0.289686 J-0.000000 F400.000000
G03 X23.389975 Y54.955106 Z0 I0.204837 J0.204831
G03 X23.594815 Y55.039955 Z0 I0.000000 J0.289684
G03 X23.679659 Y55.244790 Z0 I-0.204840 J0.204835
G03 X23.594814 Y55.449628 Z0 I-0.289689 J0.000000
G03 X23.389975 Y55.534477 Z0 I-0.204839 J-0.204833
G03 X23.185139 Y55.449629 Z0 I0.000000 J-0.289677
G03 X23.100293 Y55.244790 Z0 I0.204846 J-0.204839
G01 X23.100293 Y55.244790 Z0
G00 Z5

(End cutting path id: path8466)


(Start cutting path id: path8464)
(Change tool to Default tool)

G00 Z5
G00 X23.882608 Y58.576531

G01 Z0 F100.0(Penetrate)
G01 X20.380992 Y58.576531 Z0 F400.000000
G03 X19.785674 Y58.329943 Z0 I-0.000000 J-0.841909
G03 X19.539089 Y57.734636 Z0 I0.595304 J-0.595306
G03 X19.785677 Y57.139321 Z0 I0.841903 J0.000000
G03 X20.380992 Y56.892734 Z0 I0.595315 J0.595315
G01 X23.882608 Y56.892734 Z0
G03 X24.477923 Y57.139321 Z0 I0.000000 J0.841903
G03 X24.724511 Y57.734636 Z0 I-0.595315 J0.595315
G03 X24.477926 Y58.329943 Z0 I-0.841888 J-0.000000
G03 X23.882608 Y58.576531 Z0 I-0.595318 J-0.595321
G01 X23.882608 Y58.576531 Z0
G00 Z5

(End cutting path id: path8464)


(Start cutting path id: path8464)
(Change tool to Default tool)

G00 Z5
G00 X20.560276 Y57.784790

G01 Z0 F100.0(Penetrate)
G03 X20.645122 Y57.579954 Z0 I0.289684 J0.000000 F400.000000
G03 X20.849961 Y57.495106 Z0 I0.204839 J0.204836
G03 X21.054800 Y57.579954 Z0 I0.000000 J0.289684
G03 X21.139645 Y57.784790 Z0 I-0.204839 J0.204836
G03 X21.054799 Y57.989629 Z0 I-0.289689 J0.000000
G03 X20.849961 Y58.074477 Z0 I-0.204838 J-0.204835
G03 X20.645123 Y57.989629 Z0 I0.000000 J-0.289682
G03 X20.560276 Y57.784790 Z0 I0.204843 J-0.204839
G01 X20.560276 Y57.784790 Z0
G00 Z5

(End cutting path id: path8464)


(Start cutting path id: path8464)
(Change tool to Default tool)

G00 Z5
G00 X23.100293 Y57.784790

G01 Z0 F100.0(Penetrate)
G03 X23.185138 Y57.579954 Z0 I0.289686 J0.000000 F400.000000
G03 X23.389975 Y57.495106 Z0 I0.204837 J0.204831
G03 X23.594815 Y57.579955 Z0 I0.000000 J0.289684
G03 X23.679659 Y57.784790 Z0 I-0.204840 J0.204835
G03 X23.594814 Y57.989628 Z0 I-0.289689 J0.000000
G03 X23.389975 Y58.074477 Z0 I-0.204839 J-0.204833
G03 X23.185139 Y57.989629 Z0 I-0.000000 J-0.289677
G03 X23.100293 Y57.784790 Z0 I0.204846 J-0.204839
G01 X23.100293 Y57.784790 Z0
G00 Z5

(End cutting path id: path8464)


(Start cutting path id: path8462)
(Change tool to Default tool)

G00 Z5
G00 X34.042607 Y25.556530

G01 Z0 F100.0(Penetrate)
G01 X30.540991 Y25.556530 Z0 F400.000000
G03 X29.945673 Y25.309942 Z0 I-0.000000 J-0.841909
G03 X29.699088 Y24.714636 Z0 I0.595304 J-0.595306
G03 X29.945676 Y24.119321 Z0 I0.841903 J0.000000
G03 X30.540991 Y23.872733 Z0 I0.595315 J0.595315
G01 X34.042607 Y23.872733 Z0
G03 X34.637922 Y24.119321 Z0 I0.000000 J0.841903
G03 X34.884510 Y24.714636 Z0 I-0.595315 J0.595315
G03 X34.637925 Y25.309942 Z0 I-0.841888 J0.000000
G03 X34.042607 Y25.556530 Z0 I-0.595318 J-0.595321
G01 X34.042607 Y25.556530 Z0
G00 Z5

(End cutting path id: path8462)


(Start cutting path id: path8462)
(Change tool to Default tool)

G00 Z5
G00 X30.720276 Y24.764790

G01 Z0 F100.0(Penetrate)
G03 X30.805121 Y24.559953 Z0 I0.289684 J0.000000 F400.000000
G03 X31.009960 Y24.475106 Z0 I0.204839 J0.204836
G03 X31.214799 Y24.559953 Z0 I0.000000 J0.289684
G03 X31.299644 Y24.764790 Z0 I-0.204839 J0.204836
G03 X31.214798 Y24.969629 Z0 I-0.289689 J0.000000
G03 X31.009960 Y25.054477 Z0 I-0.204838 J-0.204835
G03 X30.805122 Y24.969629 Z0 I0.000000 J-0.289682
G03 X30.720276 Y24.764790 Z0 I0.204843 J-0.204839
G01 X30.720276 Y24.764790 Z0
G00 Z5

(End cutting path id: path8462)


(Start cutting path id: path8462)
(Change tool to Default tool)

G00 Z5
G00 X33.260293 Y24.764790

G01 Z0 F100.0(Penetrate)
G03 X33.345137 Y24.559954 Z0 I0.289686 J0.000000 F400.000000
G03 X33.549974 Y24.475106 Z0 I0.204837 J0.204831
G03 X33.754814 Y24.559955 Z0 I0.000000 J0.289684
G03 X33.839658 Y24.764790 Z0 I-0.204840 J0.204835
G03 X33.754813 Y24.969628 Z0 I-0.289689 J0.000000
G03 X33.549974 Y25.054477 Z0 I-0.204839 J-0.204833
G03 X33.345138 Y24.969629 Z0 I0.000000 J-0.289677
G03 X33.260293 Y24.764790 Z0 I0.204846 J-0.204839
G01 X33.260293 Y24.764790 Z0
G00 Z5

