%
(Header)
(Generated by gcodetools from Inkscape.)
(Using default header. To add your own header create file "header" in the output dir.)
M3
(Header end.)
G21 (All units in mm)

(Start cutting path id: circulo)
(Change tool to Default tool)

G00 Z30.000000
G00 X32.729534 Y28.558708

G01 Z-0.125000 F100.0(Penetrate)
G02 X32.514705 Y27.478690 Z-0.125000 I-2.822222 J-0.000000 F400.000000
G02 X31.902925 Y26.563095 Z-0.125000 I-2.607393 J1.080018
G02 X30.987330 Y25.951314 Z-0.125000 I-1.995612 J1.995612
G02 X29.907312 Y25.736485 Z-0.125000 I-1.080018 J2.607393
G02 X28.827294 Y25.951314 Z-0.125000 I0.000000 J2.822222
G02 X27.911700 Y26.563095 Z-0.125000 I1.080018 J2.607393
G02 X27.299919 Y27.478690 Z-0.125000 I1.995612 J1.995612
G02 X27.085090 Y28.558708 Z-0.125000 I2.607393 J1.080018
G02 X27.299919 Y29.638725 Z-0.125000 I2.822222 J0.000000
G02 X27.911700 Y30.554320 Z-0.125000 I2.607393 J-1.080018
G02 X28.827294 Y31.166101 Z-0.125000 I1.995612 J-1.995612
G02 X29.907312 Y31.380930 Z-0.125000 I1.080018 J-2.607393
G02 X30.987330 Y31.166101 Z-0.125000 I-0.000000 J-2.822222
G02 X31.902925 Y30.554320 Z-0.125000 I-1.080018 J-2.607393
G02 X32.514705 Y29.638725 Z-0.125000 I-1.995612 J-1.995612
G02 X32.729534 Y28.558708 Z-0.125000 I-2.607393 J-1.080018
G01 X32.729534 Y28.558708 Z-0.125000

G01 Z-2.125000 F100.0(Penetrate)
G02 X32.514705 Y27.478690 Z-2.125000 I-2.822222 J-0.000000 F400.000000
G02 X31.902925 Y26.563095 Z-2.125000 I-2.607393 J1.080018
G02 X30.987330 Y25.951314 Z-2.125000 I-1.995612 J1.995612
G02 X29.907312 Y25.736485 Z-2.125000 I-1.080018 J2.607393
G02 X28.827294 Y25.951314 Z-2.125000 I0.000000 J2.822222
G02 X27.911700 Y26.563095 Z-2.125000 I1.080018 J2.607393
G02 X27.299919 Y27.478690 Z-2.125000 I1.995612 J1.995612
G02 X27.085090 Y28.558708 Z-2.125000 I2.607393 J1.080018
G02 X27.299919 Y29.638725 Z-2.125000 I2.822222 J0.000000
G02 X27.911700 Y30.554320 Z-2.125000 I2.607393 J-1.080018
G02 X28.827294 Y31.166101 Z-2.125000 I1.995612 J-1.995612
G02 X29.907312 Y31.380930 Z-2.125000 I1.080018 J-2.607393
G02 X30.987330 Y31.166101 Z-2.125000 I-0.000000 J-2.822222
G02 X31.902925 Y30.554320 Z-2.125000 I-1.080018 J-2.607393
G02 X32.514705 Y29.638725 Z-2.125000 I-1.995612 J-1.995612
G02 X32.729534 Y28.558708 Z-2.125000 I-2.607393 J-1.080018
G01 X32.729534 Y28.558708 Z-2.125000

G01 Z-5.125000 F100.0(Penetrate)
G02 X32.514705 Y27.478690 Z-5.125000 I-2.822222 J-0.000000 F400.000000
G02 X31.902925 Y26.563095 Z-5.125000 I-2.607393 J1.080018
G02 X30.987330 Y25.951314 Z-5.125000 I-1.995612 J1.995612
G02 X29.907312 Y25.736485 Z-5.125000 I-1.080018 J2.607393
G02 X28.827294 Y25.951314 Z-5.125000 I0.000000 J2.822222
G02 X27.911700 Y26.563095 Z-5.125000 I1.080018 J2.607393
G02 X27.299919 Y27.478690 Z-5.125000 I1.995612 J1.995612
G02 X27.085090 Y28.558708 Z-5.125000 I2.607393 J1.080018
G02 X27.299919 Y29.638725 Z-5.125000 I2.822222 J0.000000
G02 X27.911700 Y30.554320 Z-5.125000 I2.607393 J-1.080018
G02 X28.827294 Y31.166101 Z-5.125000 I1.995612 J-1.995612
G02 X29.907312 Y31.380930 Z-5.125000 I1.080018 J-2.607393
G02 X30.987330 Y31.166101 Z-5.125000 I-0.000000 J-2.822222
G02 X31.902925 Y30.554320 Z-5.125000 I-1.080018 J-2.607393
G02 X32.514705 Y29.638725 Z-5.125000 I-1.995612 J-1.995612
G02 X32.729534 Y28.558708 Z-5.125000 I-2.607393 J-1.080018
G01 X32.729534 Y28.558708 Z-5.125000
G00 Z30.000000

(End cutting path id: circulo)


(Start cutting path id: engrenagem)
(Change tool to Default tool)

G00 Z30.000000
G00 X37.003533 Y29.695693

G01 Z-0.125000 F100.0(Penetrate)
G01 X38.642829 Y29.958346 Z-0.125000 F400.000000
G01 X38.780125 Y29.964022 Z-0.125000
G01 X40.660380 Y29.321588 Z-0.125000
G01 X40.660380 Y27.795827 Z-0.125000
G01 X38.780125 Y27.153393 Z-0.125000
G01 X38.642829 Y27.159069 Z-0.125000
G01 X37.003533 Y27.421722 Z-0.125000
G01 X36.316579 Y25.307493 Z-0.125000
G01 X37.797181 Y24.556432 Z-0.125000
G01 X37.911591 Y24.480323 Z-0.125000
G01 X39.055136 Y22.855397 Z-0.125000
G01 X38.158316 Y21.621031 Z-0.125000
G01 X36.259544 Y22.206475 Z-0.125000
G01 X36.151806 Y22.291768 Z-0.125000
G01 X34.979971 Y23.467814 Z-0.125000
G01 X33.181502 Y22.161147 Z-0.125000
G01 X33.937872 Y20.683251 Z-0.125000
G01 X33.985697 Y20.554428 Z-0.125000
G01 X33.955736 Y18.567677 Z-0.125000
G01 X32.504651 Y18.096191 Z-0.125000
G01 X31.312626 Y19.685895 Z-0.125000
G01 X31.275599 Y19.818226 Z-0.125000
G01 X31.018827 Y21.458454 Z-0.125000
G01 X28.795797 Y21.458454 Z-0.125000
G01 X28.539025 Y19.818226 Z-0.125000
G01 X28.501998 Y19.685895 Z-0.125000
G01 X27.309973 Y18.096191 Z-0.125000
G01 X25.858888 Y18.567677 Z-0.125000
G01 X25.828927 Y20.554428 Z-0.125000
G01 X25.876753 Y20.683251 Z-0.125000
G01 X26.633122 Y22.161147 Z-0.125000
G01 X24.834653 Y23.467814 Z-0.125000
G01 X23.662818 Y22.291768 Z-0.125000
G01 X23.555080 Y22.206475 Z-0.125000
G01 X21.656308 Y21.621031 Z-0.125000
G01 X20.759488 Y22.855397 Z-0.125000
G01 X21.903033 Y24.480323 Z-0.125000
G01 X22.017443 Y24.556432 Z-0.125000
G01 X23.498045 Y25.307493 Z-0.125000
G01 X22.811091 Y27.421722 Z-0.125000
G01 X21.171795 Y27.159069 Z-0.125000
G01 X21.034499 Y27.153393 Z-0.125000
G01 X19.154245 Y27.795827 Z-0.125000
G01 X19.154245 Y29.321588 Z-0.125000
G01 X21.034499 Y29.964022 Z-0.125000
G01 X21.171795 Y29.958346 Z-0.125000
G01 X22.811091 Y29.695693 Z-0.125000
G01 X23.498045 Y31.809922 Z-0.125000
G01 X22.017443 Y32.560983 Z-0.125000
G01 X21.903033 Y32.637092 Z-0.125000
G01 X20.759488 Y34.262018 Z-0.125000
G01 X21.656308 Y35.496385 Z-0.125000
G01 X23.555080 Y34.910940 Z-0.125000
G01 X23.662818 Y34.825647 Z-0.125000
G01 X24.834653 Y33.649601 Z-0.125000
G01 X26.633122 Y34.956268 Z-0.125000
G01 X25.876753 Y36.434164 Z-0.125000
G01 X25.828927 Y36.562987 Z-0.125000
G01 X25.858888 Y38.549738 Z-0.125000
G01 X27.309973 Y39.021224 Z-0.125000
G01 X28.501998 Y37.431520 Z-0.125000
G01 X28.539025 Y37.299189 Z-0.125000
G01 X28.795797 Y35.658962 Z-0.125000
G01 X31.018827 Y35.658962 Z-0.125000
G01 X31.275599 Y37.299189 Z-0.125000
G01 X31.312626 Y37.431520 Z-0.125000
G01 X32.504651 Y39.021224 Z-0.125000
G01 X33.955736 Y38.549738 Z-0.125000
G01 X33.985697 Y36.562987 Z-0.125000
G01 X33.937872 Y36.434164 Z-0.125000
G01 X33.181502 Y34.956268 Z-0.125000
G01 X34.979971 Y33.649601 Z-0.125000
G01 X36.151806 Y34.825647 Z-0.125000
G01 X36.259544 Y34.910940 Z-0.125000
G01 X38.158316 Y35.496385 Z-0.125000
G01 X39.055136 Y34.262018 Z-0.125000
G01 X37.911591 Y32.637092 Z-0.125000
G01 X37.797181 Y32.560983 Z-0.125000
G01 X36.316579 Y31.809922 Z-0.125000
G01 X37.003533 Y29.695693 Z-0.125000

G01 Z-2.125000 F100.0(Penetrate)
G01 X38.642829 Y29.958346 Z-2.125000 F400.000000
G01 X38.780125 Y29.964022 Z-2.125000
G01 X40.660380 Y29.321588 Z-2.125000
G01 X40.660380 Y27.795827 Z-2.125000
G01 X38.780125 Y27.153393 Z-2.125000
G01 X38.642829 Y27.159069 Z-2.125000
G01 X37.003533 Y27.421722 Z-2.125000
G01 X36.316579 Y25.307493 Z-2.125000
G01 X37.797181 Y24.556432 Z-2.125000
G01 X37.911591 Y24.480323 Z-2.125000
G01 X39.055136 Y22.855397 Z-2.125000
G01 X38.158316 Y21.621031 Z-2.125000
G01 X36.259544 Y22.206475 Z-2.125000
G01 X36.151806 Y22.291768 Z-2.125000
G01 X34.979971 Y23.467814 Z-2.125000
G01 X33.181502 Y22.161147 Z-2.125000
G01 X33.937872 Y20.683251 Z-2.125000
G01 X33.985697 Y20.554428 Z-2.125000
G01 X33.955736 Y18.567677 Z-2.125000
G01 X32.504651 Y18.096191 Z-2.125000
G01 X31.312626 Y19.685895 Z-2.125000
G01 X31.275599 Y19.818226 Z-2.125000
G01 X31.018827 Y21.458454 Z-2.125000
G01 X28.795797 Y21.458454 Z-2.125000
G01 X28.539025 Y19.818226 Z-2.125000
G01 X28.501998 Y19.685895 Z-2.125000
G01 X27.309973 Y18.096191 Z-2.125000
G01 X25.858888 Y18.567677 Z-2.125000
G01 X25.828927 Y20.554428 Z-2.125000
G01 X25.876753 Y20.683251 Z-2.125000
G01 X26.633122 Y22.161147 Z-2.125000
G01 X24.834653 Y23.467814 Z-2.125000
G01 X23.662818 Y22.291768 Z-2.125000
G01 X23.555080 Y22.206475 Z-2.125000
G01 X21.656308 Y21.621031 Z-2.125000
G01 X20.759488 Y22.855397 Z-2.125000
G01 X21.903033 Y24.480323 Z-2.125000
G01 X22.017443 Y24.556432 Z-2.125000
G01 X23.498045 Y25.307493 Z-2.125000
G01 X22.811091 Y27.421722 Z-2.125000
G01 X21.171795 Y27.159069 Z-2.125000
G01 X21.034499 Y27.153393 Z-2.125000
G01 X19.154245 Y27.795827 Z-2.125000
G01 X19.154245 Y29.321588 Z-2.125000
G01 X21.034499 Y29.964022 Z-2.125000
G01 X21.171795 Y29.958346 Z-2.125000
G01 X22.811091 Y29.695693 Z-2.125000
G01 X23.498045 Y31.809922 Z-2.125000
G01 X22.017443 Y32.560983 Z-2.125000
G01 X21.903033 Y32.637092 Z-2.125000
G01 X20.759488 Y34.262018 Z-2.125000
G01 X21.656308 Y35.496385 Z-2.125000
G01 X23.555080 Y34.910940 Z-2.125000
G01 X23.662818 Y34.825647 Z-2.125000
G01 X24.834653 Y33.649601 Z-2.125000
G01 X26.633122 Y34.956268 Z-2.125000
G01 X25.876753 Y36.434164 Z-2.125000
G01 X25.828927 Y36.562987 Z-2.125000
G01 X25.858888 Y38.549738 Z-2.125000
G01 X27.309973 Y39.021224 Z-2.125000
G01 X28.501998 Y37.431520 Z-2.125000
G01 X28.539025 Y37.299189 Z-2.125000
G01 X28.795797 Y35.658962 Z-2.125000
G01 X31.018827 Y35.658962 Z-2.125000
G01 X31.275599 Y37.299189 Z-2.125000
G01 X31.312626 Y37.431520 Z-2.125000
G01 X32.504651 Y39.021224 Z-2.125000
G01 X33.955736 Y38.549738 Z-2.125000
G01 X33.985697 Y36.562987 Z-2.125000
G01 X33.937872 Y36.434164 Z-2.125000
G01 X33.181502 Y34.956268 Z-2.125000
G01 X34.979971 Y33.649601 Z-2.125000
G01 X36.151806 Y34.825647 Z-2.125000
G01 X36.259544 Y34.910940 Z-2.125000
G01 X38.158316 Y35.496385 Z-2.125000
G01 X39.055136 Y34.262018 Z-2.125000
G01 X37.911591 Y32.637092 Z-2.125000
G01 X37.797181 Y32.560983 Z-2.125000
G01 X36.316579 Y31.809922 Z-2.125000
G01 X37.003533 Y29.695693 Z-2.125000

G01 Z-5.125000 F100.0(Penetrate)
G01 X38.642829 Y29.958346 Z-5.125000 F400.000000
G01 X38.780125 Y29.964022 Z-5.125000
G01 X40.660380 Y29.321588 Z-5.125000
G01 X40.660380 Y27.795827 Z-5.125000
G01 X38.780125 Y27.153393 Z-5.125000
G01 X38.642829 Y27.159069 Z-5.125000
G01 X37.003533 Y27.421722 Z-5.125000
G01 X36.316579 Y25.307493 Z-5.125000
G01 X37.797181 Y24.556432 Z-5.125000
G01 X37.911591 Y24.480323 Z-5.125000
G01 X39.055136 Y22.855397 Z-5.125000
G01 X38.158316 Y21.621031 Z-5.125000
G01 X36.259544 Y22.206475 Z-5.125000
G01 X36.151806 Y22.291768 Z-5.125000
G01 X34.979971 Y23.467814 Z-5.125000
G01 X33.181502 Y22.161147 Z-5.125000
G01 X33.937872 Y20.683251 Z-5.125000
G01 X33.985697 Y20.554428 Z-5.125000
G01 X33.955736 Y18.567677 Z-5.125000
G01 X32.504651 Y18.096191 Z-5.125000
G01 X31.312626 Y19.685895 Z-5.125000
G01 X31.275599 Y19.818226 Z-5.125000
G01 X31.018827 Y21.458454 Z-5.125000
G01 X28.795797 Y21.458454 Z-5.125000
G01 X28.539025 Y19.818226 Z-5.125000
G01 X28.501998 Y19.685895 Z-5.125000
G01 X27.309973 Y18.096191 Z-5.125000
G01 X25.858888 Y18.567677 Z-5.125000
G01 X25.828927 Y20.554428 Z-5.125000
G01 X25.876753 Y20.683251 Z-5.125000
G01 X26.633122 Y22.161147 Z-5.125000
G01 X24.834653 Y23.467814 Z-5.125000
G01 X23.662818 Y22.291768 Z-5.125000
G01 X23.555080 Y22.206475 Z-5.125000
G01 X21.656308 Y21.621031 Z-5.125000
G01 X20.759488 Y22.855397 Z-5.125000
G01 X21.903033 Y24.480323 Z-5.125000
G01 X22.017443 Y24.556432 Z-5.125000
G01 X23.498045 Y25.307493 Z-5.125000
G01 X22.811091 Y27.421722 Z-5.125000
G01 X21.171795 Y27.159069 Z-5.125000
G01 X21.034499 Y27.153393 Z-5.125000
G01 X19.154245 Y27.795827 Z-5.125000
G01 X19.154245 Y29.321588 Z-5.125000
G01 X21.034499 Y29.964022 Z-5.125000
G01 X21.171795 Y29.958346 Z-5.125000
G01 X22.811091 Y29.695693 Z-5.125000
G01 X23.498045 Y31.809922 Z-5.125000
G01 X22.017443 Y32.560983 Z-5.125000
G01 X21.903033 Y32.637092 Z-5.125000
G01 X20.759488 Y34.262018 Z-5.125000
G01 X21.656308 Y35.496385 Z-5.125000
G01 X23.555080 Y34.910940 Z-5.125000
G01 X23.662818 Y34.825647 Z-5.125000
G01 X24.834653 Y33.649601 Z-5.125000
G01 X26.633122 Y34.956268 Z-5.125000
G01 X25.876753 Y36.434164 Z-5.125000
G01 X25.828927 Y36.562987 Z-5.125000
G01 X25.858888 Y38.549738 Z-5.125000
G01 X27.309973 Y39.021224 Z-5.125000
G01 X28.501998 Y37.431520 Z-5.125000
G01 X28.539025 Y37.299189 Z-5.125000
G01 X28.795797 Y35.658962 Z-5.125000
G01 X31.018827 Y35.658962 Z-5.125000
G01 X31.275599 Y37.299189 Z-5.125000
G01 X31.312626 Y37.431520 Z-5.125000
G01 X32.504651 Y39.021224 Z-5.125000
G01 X33.955736 Y38.549738 Z-5.125000
G01 X33.985697 Y36.562987 Z-5.125000
G01 X33.937872 Y36.434164 Z-5.125000
G01 X33.181502 Y34.956268 Z-5.125000
G01 X34.979971 Y33.649601 Z-5.125000
G01 X36.151806 Y34.825647 Z-5.125000
G01 X36.259544 Y34.910940 Z-5.125000
G01 X38.158316 Y35.496385 Z-5.125000
G01 X39.055136 Y34.262018 Z-5.125000
G01 X37.911591 Y32.637092 Z-5.125000
G01 X37.797181 Y32.560983 Z-5.125000
G01 X36.316579 Y31.809922 Z-5.125000
G01 X37.003533 Y29.695693 Z-5.125000
G00 Z30.000000

(End cutting path id: engrenagem)


(Start cutting path id: zigzag)
(Change tool to Default tool)

G00 Z30.000000
G00 X16.636066 Y16.213500

G01 Z-0.125000 F100.0(Penetrate)
G01 X17.663355 Y13.391278 Z-0.125000 F400.000000
G01 X19.458288 Y13.391278 Z-0.125000
G01 X20.485577 Y16.213500 Z-0.125000
G01 X22.280510 Y16.213500 Z-0.125000
G01 X23.307799 Y13.391278 Z-0.125000
G01 X25.102733 Y13.391278 Z-0.125000
G01 X26.130022 Y16.213500 Z-0.125000
G01 X27.924955 Y16.213500 Z-0.125000
G01 X28.952244 Y13.391278 Z-0.125000
G01 X30.747177 Y13.391278 Z-0.125000
G01 X31.774466 Y16.213500 Z-0.125000
G01 X33.569399 Y16.213500 Z-0.125000
G01 X34.596688 Y13.391278 Z-0.125000
G01 X36.391622 Y13.391278 Z-0.125000
G01 X37.418911 Y16.213500 Z-0.125000
G01 X39.213844 Y16.213500 Z-0.125000
G01 X40.241133 Y13.391278 Z-0.125000
G01 X42.036066 Y13.391278 Z-0.125000
G01 X43.063355 Y16.213500 Z-0.125000
G00 Z30.000000

(End cutting path id: zigzag)

(Start cutting path id: quadrado)
(Change tool to Default tool)

G00 Z30.000000
G00 X15.271877 Y40.241251

G01 Z-0.125000 F100.0(Penetrate)
G01 X44.517576 Y40.241251 Z-0.125000 F400.000000
G01 X44.517576 Y10.995547 Z-0.125000
G01 X15.271877 Y10.995547 Z-0.125000
G01 X15.271877 Y40.241251 Z-0.125000

G01 Z-2.125000 F100.0(Penetrate)
G01 X44.517576 Y40.241251 Z-2.125000 F400.000000
G01 X44.517576 Y10.995547 Z-2.125000
G01 X15.271877 Y10.995547 Z-2.125000
G01 X15.271877 Y40.241251 Z-2.125000

G01 Z-5.125000 F100.0(Penetrate)
G01 X44.517576 Y40.241251 Z-5.125000 F400.000000
G01 X44.517576 Y10.995547 Z-5.125000
G01 X15.271877 Y10.995547 Z-5.125000
G01 X15.271877 Y40.241251 Z-5.125000

G00 Z30.000000

(End cutting path id: quadrado)

(Footer)
M5
G00 X0.0000 Y0.0000
M2
(Using default footer. To add your own footer create file "footer" in the output dir.)
(end)
%
