%
(Generated by SketchUcam V1.4d-80c0152)
(File: x.skp)
(Bit diameter: 3mm)
(Feed rate: 1500mm/min)
(Plunge Feed rate: 400mm/min)
(Material Thickness: 3mm)
(Material length: 100mm X width: 100mm)
(Overhead Gantry: false)
(Multipass enabled, Depth = 1mm)
(Plunge Depth first)
(Optimization is ON)
(www.PhlatBoyz.com)
G90 G21 G49 G17 F400 
M3 S15000
G00 Z10.000
(Pass: 1)
 X13.426 Y15.158
G00 Z0.500
G01 Z-1.000 F400 
 X13.656 Y15.043 F1500
 X13.909 Y14.992
 X14.166 Y15.008
 X14.410 Y15.090
 X14.708 Y15.287
 X16.444 Y16.800
 X16.680 Y17.068
 X16.795 Y17.299
 X16.846 Y17.551
 X16.830 Y17.808
 X16.748 Y18.053
 X16.605 Y18.267
 X16.412 Y18.438
 X16.181 Y18.553
 X15.929 Y18.604
 X15.672 Y18.588
 X15.427 Y18.506
 X15.130 Y18.308
 X13.394 Y16.795
 X13.158 Y16.527
 X13.043 Y16.297
 X12.992 Y16.044
 X13.008 Y15.787
 X13.090 Y15.543
 X13.232 Y15.328
 X13.426 Y15.158

G00 Z10.000
(Pass: 1)
 X15.672 Y74.365
G00 Z0.500
G01 Z-1.000 F400 
 X15.929 Y74.349 F1500
 X16.181 Y74.400
 X16.412 Y74.515
 X16.605 Y74.686
 X16.748 Y74.900
 X16.830 Y75.145
 X16.846 Y75.402
 X16.795 Y75.654
 X16.680 Y75.885
 X16.444 Y76.153
 X14.708 Y77.666
 X14.410 Y77.863
 X14.166 Y77.945
 X13.909 Y77.961
 X13.656 Y77.910
 X13.426 Y77.795
 X13.232 Y77.625
 X13.090 Y77.410
 X13.008 Y77.166
 X12.992 Y76.909
 X13.043 Y76.656
 X13.158 Y76.426
 X13.394 Y76.158
 X15.130 Y74.645
 X15.427 Y74.447
 X15.672 Y74.365

G00 Z10.000
(Pass: 1)
 X81.107 Y75.402
G00 Z0.500
G01 Z-1.000 F400 
 X81.123 Y75.145 F1500
 X81.205 Y74.900
 X81.348 Y74.686
 X81.541 Y74.515
 X81.771 Y74.400
 X82.024 Y74.349
 X82.281 Y74.365
 X82.525 Y74.447
 X82.823 Y74.645
 X84.559 Y76.158
 X84.795 Y76.426
 X84.910 Y76.656
 X84.961 Y76.909
 X84.945 Y77.166
 X84.863 Y77.410
 X84.721 Y77.625
 X84.527 Y77.795
 X84.297 Y77.910
 X84.044 Y77.961
 X83.787 Y77.945
 X83.543 Y77.863
 X83.245 Y77.666
 X81.509 Y76.153
 X81.273 Y75.885
 X81.158 Y75.654
 X81.107 Y75.402

G00 Z10.000
(Pass: 1)
 X82.281 Y18.588
G00 Z0.500
G01 Z-1.000 F400 
 X82.024 Y18.604 F1500
 X81.771 Y18.553
 X81.541 Y18.438
 X81.348 Y18.267
 X81.205 Y18.053
 X81.123 Y17.808
 X81.107 Y17.551
 X81.158 Y17.299
 X81.273 Y17.068
 X81.509 Y16.800
 X83.245 Y15.287
 X83.543 Y15.090
 X83.787 Y15.008
 X84.044 Y14.992
 X84.297 Y15.043
 X84.527 Y15.158
 X84.721 Y15.328
 X84.863 Y15.543
 X84.945 Y15.787
 X84.961 Y16.044
 X84.910 Y16.297
 X84.795 Y16.527
 X84.559 Y16.795
 X82.823 Y18.308
 X82.525 Y18.506
 X82.281 Y18.588

G00 Z10.000
(Pass: 1)
 X91.606 Y24.582
G00 Z0.500
G01 Z-1.000 F400 
 X93.529 Y22.403 F1500
 X94.867 Y19.711
 X95.462 Y16.766
 X95.275 Y13.766
 X94.318 Y10.917
 X92.656 Y8.413
 X90.403 Y6.424
 X87.711 Y5.086
 X84.766 Y4.491
 X81.766 Y4.678
 X78.917 Y5.635
 X76.495 Y7.242
 X69.280 Y13.530
 X67.018 Y15.501
 X59.803 Y21.788
 X57.541 Y23.759
 X48.976 Y31.223
 X40.844 Y24.135
 X38.582 Y22.164
 X30.449 Y15.077
 X28.187 Y13.106
 X21.458 Y7.242
 X19.036 Y5.635
 X16.187 Y4.678
 X13.187 Y4.491
 X10.242 Y5.086
 X7.550 Y6.424
 X5.297 Y8.413
 X3.635 Y10.917
 X2.678 Y13.766
 X2.491 Y16.766
 X3.086 Y19.711
 X4.424 Y22.403
 X6.347 Y24.582
 X14.301 Y31.513
 X16.563 Y33.484
 X24.516 Y40.415
 X26.778 Y42.386
 X31.472 Y46.476
 X22.083 Y54.658
 X19.821 Y56.629
 X10.432 Y64.811
 X8.170 Y66.782
 X6.347 Y68.371
 X4.424 Y70.550
 X3.086 Y73.242
 X2.491 Y76.187
 X2.678 Y79.187
 X3.635 Y82.036
 X5.297 Y84.540
 X7.550 Y86.529
 X10.242 Y87.867
 X13.187 Y88.462
 X16.187 Y88.275
 X19.036 Y87.318
 X21.458 Y85.711
 X26.429 Y81.379
 X28.691 Y79.408
 X40.241 Y69.342
 X42.503 Y67.371
 X48.976 Y61.730
 X55.634 Y67.532
 X57.896 Y69.503
 X67.605 Y77.964
 X69.867 Y79.934
 X76.495 Y85.711
 X78.917 Y87.318
 X81.766 Y88.275
 X84.766 Y88.462
 X87.711 Y87.867
 X90.403 Y86.529
 X92.656 Y84.540
 X94.318 Y82.036
 X95.275 Y79.187
 X95.462 Y76.187
 X94.867 Y73.242
 X93.529 Y70.550
 X91.606 Y68.371
 X84.610 Y62.275
 X82.348 Y60.304
 X75.353 Y54.208
 X73.091 Y52.237
 X66.481 Y46.476
 X73.139 Y40.674
 X75.401 Y38.703
 X82.060 Y32.901
 X84.321 Y30.930
 X91.606 Y24.582

 

G00 Z10.000
G00 X0 Y0 (home)
M05
M30
%
